CEfanmin/DataMiningProjects/aprioriExoData/data/exo_sample_data_with_targets.csv
roll_degree,pitch_degree,yaw_degree,left_pressure,right_pressure,left_hip_joint,right_hip_joint,left_knee_joint,right_knee_joint,targets
0.782962,-107.982056,21.096569,114,20,-1.238975,-1.221488,1.692592,1.58796,1
0.058547,-108.338989,20.798553,113,27,-1.238987,-1.221488,1.692592,1.587853,1
-0.40721,-108.335289,21.850569,110,28,-1.238987,-1.221537,1.692602,1.587969,1
0.434425,-108.256599,21.825197,109,25,-1.238981,-1.221544,1.692669,1.587979,1
0.220539,-108.024223,21.182106,110,27,-1.23895,-1.221544,1.692679,1.587979,1
0.31784,-108.06665,20.772263,118,21,-1.238919,-1.221531,1.692679,1.587979,1
0.280235,-108.082817,21.000908,134,6,-1.238919,-1.221519,1.692679,1.587979,1
0.4686,-108.201721,20.881647,144,6,-1.238919,-1.221506,1.69265,1.587969,1
0.419695,-108.300468,20.932497,140,8,-1.238919,-1.221506,1.69264,1.587969,1
0.813638,-108.068726,20.347164,124,15,-1.238919,-1.221506,1.69264,1.587969,1
0.431193,-107.925102,20.298695,114,24,-1.238925,-1.221506,1.692611,1.58795,1
0.547887,-108.236725,20.675131,107,25,-1.238956,-1.221506,1.692611,1.58794,1
0.867695,-108.370819,21.028431,105,22,-1.238956,-1.221506,1.692611,1.58794,1
0.804146,-108.342941,20.914408,107,18,-1.238994,-1.221513,1.692689,1.58794,1
0.557531,-108.476814,21.364342,111,26,-1.238994,-1.221519,1.692708,1.58795,1
0.244324,-107.375832,20.863092,112,29,-1.238994,-1.221519,1.692728,1.58796,1
0.569249,-105.304848,19.41868,111,30,-1.238987,-1.22155,1.692728,1.58796,1
-0.019395,-105.488869,16.986252,112,31,-1.238956,-1.22155,1.692718,1.58796,1
-0.132727,-105.651665,16.813686,111,33,-1.238956,-1.22155,1.692679,1.58796,1
-0.063309,-105.954262,17.0229,112,32,-1.23895,-1.221544,1.692582,1.58796,1
-0.003329,-106.295685,17.301338,113,33,-1.23895,-1.221531,1.692582,1.58796,1
-0.064795,-106.346855,17.967573,112,33,-1.23895,-1.221519,1.692582,1.58796,1
-0.020234,-106.33847,17.896605,112,32,-1.23895,-1.221513,1.692602,1.58796,1
0.000814,-106.421066,17.942541,112,33,-1.23895,-1.221513,1.692621,1.58796,1
-0.049356,-106.477074,18.01136,112,33,-1.23895,-1.221506,1.69265,1.58796,1
-0.010377,-106.342171,17.715311,112,31,-1.23895,-1.221506,1.69266,1.58796,1
-0.023019,-106.469818,17.795721,112,33,-1.23895,-1.221506,1.69266,1.58796,1
-0.04984,-106.28862,18.158478,112,33,-1.23895,-1.221506,1.692669,1.58796,1
-0.100994,-106.109596,17.80826,113,32,-1.238688,-1.221263,1.692243,1.587853,1
0.001805,-105.677582,16.646378,113,32,-1.233759,-1.214645,1.682917,1.576365,1
0.284412,-105.646233,14.94301,109,28,-1.219581,-1.202137,1.656528,1.553932,1
-0.071094,-106.385139,14.334061,104,22,-1.196441,-1.17904,1.613379,1.511703,1
-0.213523,-106.71965,14.795836,104,21,-1.164414,-1.146982,1.554427,1.453653,1
0.253382,-107.344482,15.821432,103,24,-1.130654,-1.113223,1.502377,1.401594,3
0.301338,-107.554764,16.487066,102,21,-1.081975,-1.06455,1.440275,1.339268,3
-0.201802,-107.180832,16.906521,104,22,-1.024477,-1.007033,1.37793,1.277156,3
-0.069182,-105.920006,16.548861,62,30,-0.973174,-0.955737,1.326607,1.215043,3
0.085163,-101.982758,14.068636,57,43,-0.911046,-0.893596,1.264505,1.163711,3
0.779549,-95.716858,359.811432,57,54,-0.848718,-0.831293,1.202392,1.101376,3
-1.124265,-93.473122,358.409454,55,54,-0.78659,-0.769159,1.140067,1.039293,3
-2.865906,-92.986549,357.328033,57,63,-0.734545,-0.717102,1.087988,0.977132,3
-2.271997,-93.631073,357.269257,54,65,-0.672218,-0.654793,1.025866,0.925102,3
-1.651693,-95.894966,358.039001,54,60,-0.610083,-0.592658,0.963744,0.862757,3
-1.760947,-98.961105,106.272171,61,62,-0.558032,-0.540607,0.911501,0.800645,3
-0.729909,-100.210014,32.182289,73,65,-0.495898,-0.478479,0.849369,0.748576,3
1.171676,-99.295059,12.272716,90,87,-0.430417,-0.412992,0.78399,0.6831,3
2.164846,-97.851234,4.935401,107,106,-0.371461,-0.354029,0.724931,0.624128,2
0.37389,-96.328842,259.996399,121,115,-0.320151,-0.30272,0.673618,0.562006,2
0.12466,-94.98526,234.464142,139,109,-0.25783,-0.240592,0.611496,0.510703,2
0.178029,-94.259369,325.37851,154,113,-0.196256,-0.180059,0.549365,0.448387,2
0.663333,-93.855896,346.601044,164,124,-0.149864,-0.127983,0.487049,0.386256,2
0.211048,-93.821762,352.187653,178,136,-0.102812,-0.091182,0.434999,0.334197,2
0.133249,-93.665665,354.565247,190,135,-0.064447,-0.05531,0.372868,0.272075,2
-0.000748,-93.482117,354.932587,199,134,-0.035037,-0.028425,0.310649,0.21003,2
-1.133426,-91.565987,354.478394,204,130,-0.017288,-0.012726,0.258512,0.15926,2
-1.755002,-89.167786,351.680664,214,121,-0.004188,-0.002119,0.197689,0.129469,2
-1.644561,-88.055077,348.535431,222,106,6.00E-06,-2.50E-05,0.150497,0.109063,2
-0.076314,-87.132278,345.276642,223,105,1.90E-05,-4.40E-05,0.123992,0.104632,2
0.50738,-87.95871,342.960175,217,102,3.10E-05,-4.40E-05,0.106959,0.104681,2
0.762854,-90.923691,344.817566,199,108,2.50E-05,-1.90E-05,0.1047,0.104681,2
1.50377,-92.396797,348.767334,186,116,1.20E-05,1.20E-05,0.1047,0.10471,2
1.859432,-92.212296,349.989044,176,121,1.20E-05,1.20E-05,0.1047,0.1047,2
1.907097,-91.826874,349.690247,171,127,1.20E-05,1.20E-05,0.1047,0.1047,2
1.719688,-91.754265,349.600494,170,129,6.00E-06,1.20E-05,0.1047,0.1047,2
1.577213,-92.073448,349.78717,176,127,6.00E-06,1.20E-05,0.10471,0.1047,2
1.005427,-91.736977,349.972351,177,126,0,1.20E-05,0.10471,0.1047,2
0.827774,-91.783455,349.467438,184,126,0,1.20E-05,0.10471,0.1047,2
-0.204324,-91.421654,350.111572,181,127,0,6.00E-06,0.10471,0.1047,2
1.53822,-92.563843,350.440765,178,124,0,-1.20E-05,0.10471,0.104652,2
-0.246239,-91.955635,351.355438,174,126,0,-1.20E-05,0.10471,0.104739,2
1.644479,-91.6465,349.935059,162,130,-6.00E-06,-1.20E-05,0.1047,0.104729,2
1.820081,-92.358551,349.803284,149,129,-6.00E-06,-6.00E-06,0.1047,0.1047,2
1.450625,-92.239143,350.212433,155,127,-6.00E-06,-6.00E-06,0.1047,0.104739,2
0.376932,-93.040413,351.249939,171,122,-1.20E-05,1.20E-05,0.1047,0.104739,2
1.398372,-93.437332,352.961334,165,128,-1.20E-05,1.20E-05,0.1047,0.104652,2
0.429821,-93.295761,352.432983,161,130,-1.20E-05,6.00E-06,0.1047,0.104652,2
0.423317,-93.147591,353.534332,158,130,-1.20E-05,6.00E-06,0.1047,0.104748,2
0.719024,-93.945892,354.214996,153,127,-1.20E-05,6.00E-06,0.1047,0.10469,2
2.659766,-93.157959,352.289459,152,125,-1.20E-05,6.00E-06,0.104622,0.1047,2
0.591101,-92.248856,351.432983,155,127,-1.20E-05,6.00E-06,0.104642,0.1047,2
1.000334,-91.996269,350.320404,152,128,-1.20E-05,6.00E-06,0.104681,0.1047,2
1.311124,-92.839874,350.955627,149,127,-1.20E-05,0,0.10469,0.1047,2
2.274182,-93.314293,351.242249,154,123,-6.00E-06,-1.20E-05,0.1047,0.1047,2
2.07073,-93.351822,350.929504,170,113,0,-1.90E-05,0.1047,0.10469,2
1.458401,-94.557472,352.194672,185,107,0,-1.90E-05,0.1047,0.104661,2
0.046195,-95.025772,354.465668,191,101,0,-1.90E-05,0.1047,0.104671,2
0.788289,-95.029518,356.096802,193,95,0,-1.90E-05,0.1047,0.104681,2
1.048065,-94.913681,355.433136,192,114,-6.00E-06,-6.00E-06,0.1047,0.104748,2
0.923551,-94.90239,355.489868,182,123,0,-6.00E-06,0.1047,0.104739,2
0.787356,-93.754211,355.157593,175,125,0,2.50E-05,0.1047,0.10471,2
1.04857,-93.238335,353.534882,181,124,0,2.50E-05,0.1047,0.1047,2
1.495356,-94.060486,352.274078,180,125,0,2.50E-05,0.1047,0.1047,2
1.103531,-94.349678,352.722687,178,126,0,1.90E-05,0.1047,0.1047,2
1.287605,-94.26709,353.785126,176,125,0,1.20E-05,0.1047,0.10471,2
1.296988,-94.265816,353.465118,179,126,0,0,0.1047,0.10471,2
1.135679,-94.346252,353.905212,178,127,0,0,0.1047,0.10471,2
1.309898,-94.297363,353.730225,178,127,0,0,0.1047,0.10469,2
1.439654,-94.206535,353.697693,180,127,0,0,0.1047,0.10469,2
1.29447,-94.22757,353.750366,183,125,0,-6.00E-06,0.1047,0.10469,2
1.333526,-94.577843,354.036041,174,115,0,-6.00E-06,0.1047,0.10469,2
1.206013,-94.966263,355.363037,168,113,0,-6.00E-06,0.1047,0.10469,2
1.655323,-95.257431,355.693542,169,113,0,-6.00E-06,0.1047,0.10469,2
1.500772,-95.577309,356.877228,167,113,0,-6.00E-06,0.1047,0.10469,2
1.619906,-95.631836,357.944733,165,111,0,-6.00E-06,0.1047,0.10469,2
1.541771,-94.917252,358.271454,180,103,0,-6.00E-06,0.1047,0.10469,2
1.70023,-93.227661,357.499725,203,64,0,-0.003858,0.099048,0.117758,2
0.446605,-86.719307,350.405579,172,8,4.40E-05,0.005216,0.089741,0.207316,2
-0.64334,-84.296547,346.821228,169,-13,-0.000156,0.010084,0.08757,0.350348,2
3.158937,-81.47213,340.54425,166,-26,1.90E-05,-0.029727,0.098001,0.494165,2
-1.381801,-81.80542,338.448517,172,-27,1.90E-05,-0.120449,0.110255,0.637216,2
-1.351908,-82.458649,338.811951,186,-26,2.50E-05,-0.214112,0.115839,0.781363,2
-3.189663,-84.937424,341.555908,200,-24,1.90E-05,-0.29503,0.129915,0.926934,2
-2.045075,-86.857353,345.036804,204,-26,-6.00E-06,-0.338393,0.137535,1.026845,2
-2.491775,-87.511871,346.696869,201,-26,-7.50E-05,-0.356198,0.139135,1.042182,2
-3.743703,-87.835892,348.379486,199,-26,1.90E-05,-0.359214,0.139474,0.969745,2
-3.431166,-88.204956,349.447571,202,-26,2.50E-05,-0.363826,0.13961,0.830232,2
-3.311504,-89.24894,350.72699,206,-27,2.50E-05,-0.371448,0.139619,0.688141,2
-3.390582,-89.984062,352.282043,207,-26,-4.40E-05,-0.373162,0.139571,0.544324,2
-3.351881,-90.433006,353.223328,207,-26,-3.70E-05,-0.373499,0.139532,0.400051,2
-3.361171,-90.868523,354.707855,207,-27,1.20E-05,-0.373617,0.139581,0.279549,2
-3.507864,-91.207809,355.223267,207,-26,1.20E-05,-0.373642,0.139619,0.146696,2
-2.819174,-91.20491,355.286255,206,-25,1.20E-05,-0.373648,0.139629,0.088452,2
-2.720905,-91.71759,355.663483,205,-25,1.20E-05,-0.373661,0.13961,0.100958,2
-2.335396,-91.353539,356.171692,205,-25,-3.70E-05,-0.373605,0.139522,0.11199,2
-2.250869,-90.660126,354.811066,207,-25,2.50E-05,-0.373654,0.13961,0.114346,2
-2.171825,-90.353928,353.70166,207,-24,2.50E-05,-0.373661,0.139629,0.11485,2
-2.063691,-90.118073,352.704834,207,-23,-6.00E-06,-0.373654,0.139629,0.114976,2
-1.547969,-89.899292,351.985107,208,-25,-3.10E-05,-0.373605,0.139552,0.115015,2
-1.55568,-89.771187,351.713867,207,-25,-2.50E-05,-0.373654,0.139542,0.114996,2
-2.056991,-89.844604,351.640411,204,-25,1.90E-05,-0.373654,0.139571,0.114986,2
-2.203708,-90.092888,351.977631,204,-24,1.90E-05,-0.373636,0.139629,0.115005,2
-2.0949,-90.468681,352.515411,203,-25,-2.50E-05,-0.373642,0.139629,0.115025,2
-2.091487,-90.622154,353.144775,199,-25,6.00E-06,-0.373629,0.13961,0.115005,2
-2.757678,-90.875153,353.716278,198,-25,1.20E-05,-0.373642,0.139561,0.114976,2
-3.312307,-91.240311,354.378967,196,-25,6.00E-06,-0.373642,0.139561,0.115015,2
-3.575383,-91.620117,355.473328,194,-25,-6.00E-06,-0.373642,0.139571,0.115025,2
-4.712842,-90.562431,356.584839,200,-26,0,-0.373642,0.139639,0.115025,2
-3.644971,-93.204308,357.271271,202,-24,6.00E-06,-0.373686,0.139648,0.115015,2
-4.047059,-94.760117,191.470596,207,-25,0,-0.373629,0.139561,0.114986,2
-3.633945,-95.327583,49.087059,212,-25,0,-0.373642,0.139552,0.114986,2
-3.36396,-95.585724,19.526218,221,-22,0,-0.373642,0.139561,0.114976,2
-3.939771,-94.982437,9.874883,217,-1,7.50E-05,-0.373679,0.139678,0.114966,2
-0.368127,-93.124687,6.259466,178,30,-0.000106,-0.373567,0.139387,0.115073,2
-1.711874,-87.738861,233.47345,75,44,0.011324,-0.374558,0.156071,0.111922,2
0.184692,-85.194366,314.224426,44,72,0.002867,-0.359314,0.250844,0.118001,2
0.443611,-81.473106,333.637878,36,101,-0.065051,-0.317278,0.394515,0.127298,2
2.664996,-78.841171,335.887939,33,123,-0.156757,-0.262311,0.538749,0.136963,2
3.566278,-77.634857,332.520203,34,130,-0.246363,-0.208104,0.682586,0.13896,0
3.465971,-77.952957,330.539856,34,134,-0.322532,-0.161805,0.826005,0.139474,0
3.257167,-79.147011,328.215698,34,137,-0.35851,-0.114809,0.918141,0.139532,0
2.364245,-81.331894,327.172302,34,138,-0.362461,-0.061785,0.923997,0.13959,0
0.85102,-83.967087,330.084229,34,133,-0.36124,-0.015138,0.843872,0.13959,0
2.10293,-85.567551,333.643463,34,131,-0.374253,0.007105,0.702072,0.13959,0
3.86743,-87.916718,336.325378,34,130,-0.380154,0.013031,0.558245,0.13959,0
2.390189,-89.509323,338.763733,40,126,-0.381332,0.01434,0.414408,0.13959,0
1.848086,-91.131935,342.758484,40,123,-0.381694,0.014577,0.293877,0.13959,0
2.62567,-92.725807,347.197449,40,120,-0.381781,0.014683,0.152717,0.13959,0
2.559056,-92.589973,349.201447,40,121,-0.381775,0.014652,0.071865,0.13959,0
2.75862,-93.012642,350.193298,40,120,-0.381868,0.01477,0.069752,0.13959,0
1.539859,-93.336487,351.494965,40,122,-0.381769,0.014664,0.083615,0.139581,0
1.146774,-93.364487,352.016449,40,124,-0.381787,0.014677,0.086416,0.139581,0
1.58538,-93.561508,352.736053,40,125,-0.38185,0.014739,0.087017,0.139581,0
1.496794,-93.667,353.24881,40,125,-0.381781,0.014739,0.087143,0.139581,0
1.321076,-93.626259,353.511963,42,124,-0.381775,0.014664,0.087182,0.139581,0
1.406234,-93.689079,353.451233,40,125,-0.381781,0.01467,0.087182,0.13959,0
1.509854,-93.71273,353.612549,41,125,-0.381818,0.014695,0.087172,0.139619,0
1.523665,-93.715385,353.55014,43,125,-0.381818,0.014708,0.087172,0.13961,0
1.569156,-93.833839,353.448975,41,124,-0.381812,0.014714,0.087182,0.13961,0
1.470639,-93.936424,353.776184,41,124,-0.381787,0.014714,0.087192,0.1396,0
1.496127,-94.057724,353.718079,41,122,-0.381775,0.014714,0.087192,0.1396,0
1.545514,-94.101089,353.952393,42,120,-0.381781,0.014664,0.087182,0.1396,0
1.558278,-94.215851,354.1987,41,118,-0.381812,0.014658,0.087172,0.139581,0
1.329196,-94.505081,354.43927,41,116,-0.381818,0.014689,0.087163,0.139552,0
1.276423,-95.214256,354.653564,41,110,-0.381825,0.014714,0.087163,0.139542,0
2.891809,-96.747055,356.771973,42,113,-0.381806,0.014727,0.087172,0.139629,0
6.044081,-97.791931,359.493622,41,110,-0.381756,0.014727,0.087231,0.139658,0
6.149327,-97.921562,0.389182,41,116,-0.38185,0.014683,0.087134,0.1396,0
5.949823,-97.268402,58.119476,41,122,-0.381794,0.014683,0.087182,0.139571,0
4.919455,-95.559616,147.589584,47,112,-0.381781,0.014683,0.087192,0.139367,0
4.224812,-94.335205,281.203094,140,103,-0.381806,0.014689,0.087202,0.139619,0
5.598741,-90.395081,326.809692,180,28,-0.381775,0.014702,0.087172,0.139658,0
3.76333,-85.014175,339.04483,207,-3,-0.380236,0.01429,0.087463,0.155121,0
2.559061,-81.380325,338.599274,211,-16,-0.361944,-0.018304,0.095713,0.250466,0
-1.052784,-78.281105,337.427582,212,-18,-0.317933,-0.104812,0.109654,0.394128,0
-3.158419,-76.800537,335.076813,213,-18,-0.256266,-0.197347,0.116236,0.537518,0
-3.470917,-77.486328,334.007416,210,-17,-0.197696,-0.283899,0.127453,0.681772,2
-3.028253,-79.972061,333.570496,208,-18,-0.143439,-0.334984,0.13706,0.844629,2
-1.749802,-82.079407,336.055237,201,-18,-0.094267,-0.35454,0.138999,0.923716,2
-0.638367,-82.963844,337.144196,202,-19,-0.050624,-0.360367,0.139464,0.916348,2
-3.445061,-85.802246,339.395477,207,-19,-0.007422,-0.362025,0.139581,0.822768,2
-2.988174,-88.37693,342.853394,212,-20,0.018447,-0.368918,0.139581,0.678815,2
-3.208679,-90.093887,345.754913,212,-19,0.023209,-0.374346,0.139581,0.534978,2
-1.667689,-91.309944,349.247955,215,-21,0.024143,-0.375493,0.139581,0.391142,2
-1.938215,-92.461067,351.351166,214,-20,0.024486,-0.375786,0.139571,0.246879,2
-1.307088,-92.769913,352.795288,214,-20,0.024486,-0.37578,0.139668,0.140027,2
-3.282374,-93.598824,354.132141,214,-20,0.024492,-0.37578,0.139619,0.083586,2
-3.145706,-94.52639,356.384766,214,-20,0.024517,-0.375798,0.139552,0.099504,2
-2.393862,-94.766815,357.274841,212,-20,0.024486,-0.375792,0.139571,0.106813,2
-2.620775,-95.282722,359.526978,213,-20,0.024567,-0.375854,0.13961,0.108423,2
-2.50823,-95.770973,50.942886,215,-21,0.024573,-0.375854,0.139619,0.10881,2
-2.56261,-95.746864,117.053116,217,-21,0.024517,-0.375842,0.139513,0.108869,2
-2.680469,-95.575699,279.607483,218,-21,0.024505,-0.375755,0.1396,0.108878,2
-2.492308,-95.845261,234.685196,217,-21,0.024505,-0.375836,0.139619,0.108878,2
-2.281503,-95.899376,0.239573,217,-21,0.024505,-0.375798,0.139532,0.108878,2
-1.864247,-95.475021,0.224639,220,-21,0.024505,-0.375792,0.1396,0.108898,2
-1.163456,-94.721962,258.356995,221,-22,0.02453,-0.375798,0.139619,0.108898,2
-0.760796,-94.297646,332.534698,227,-21,0.024548,-0.375817,0.139571,0.108898,2
-1.011156,-94.849655,351.600525,236,-21,0.024499,-0.375861,0.139532,0.108898,2
-1.664158,-94.677292,356.481354,235,-21,0.024499,-0.375823,0.13961,0.108898,2
-3.176067,-95.139992,0.443094,237,-21,0.024523,-0.375804,0.1396,0.108859,2
-3.918312,-95.424126,26.187809,239,-20,0.024555,-0.375804,0.139561,0.108859,2
-2.727331,-95.264839,11.292779,248,-19,0.024555,-0.375804,0.139639,0.108869,2
-2.271549,-94.116463,6.294815,218,13,0.024548,-0.37591,0.139561,0.108927,2
-0.792838,-92.245369,217.72168,122,43,0.024455,-0.375773,0.1396,0.108946,2
-1.779849,-87.842178,313.568115,61,101,0.022454,-0.372969,0.169197,0.112194,2
-1.72381,-83.156219,336.124084,42,124,-0.002611,-0.347087,0.307925,0.120802,2
0.419239,-78.624596,337.844574,39,132,-0.096474,-0.298588,0.451732,0.131815,2
1.543647,-78.076103,334.115631,38,137,-0.187301,-0.243833,0.594434,0.137894,0
3.269744,-77.680473,331.248962,38,127,-0.275648,-0.191857,0.738096,0.139203,0
4.268553,-81.270287,329.616608,40,122,-0.338119,-0.1462,0.875418,0.139581,0
0.477838,-84.191971,331.158081,40,120,-0.361215,-0.098113,0.942688,0.139532,0
-0.008678,-86.238106,335.322388,40,115,-0.362063,-0.049801,0.923309,0.1396,0
3.020365,-88.362999,338.830109,40,114,-0.364169,-0.007753,0.794712,0.139629,0
4.199796,-89.999969,340.446808,41,115,-0.376577,0.01047,0.673774,0.139619,0
3.299722,-91.953323,342.3526,41,113,-0.380678,0.013542,0.528231,0.139581,0
1.237333,-93.465332,346.008209,45,111,-0.381557,0.01444,0.38613,0.139513,0
1.922539,-94.410416,349.849548,46,112,-0.381762,0.014627,0.243602,0.139629,0
1.19767,-93.593315,351.436218,43,112,-0.381775,0.014658,0.114608,0.139571,0
3.155113,-94.095337,351.695679,44,110,-0.381862,0.014764,0.066785,0.139668,0
3.403719,-94.638885,351.841797,45,111,-0.381781,0.01467,0.077168,0.139581,0
1.402379,-94.771851,352.280334,44,113,-0.381781,0.014646,0.08503,0.139571,0
1.077405,-94.780418,353.43869,45,116,-0.381812,0.014751,0.086581,0.139629,0
1.672333,-94.898247,354.042633,44,118,-0.381812,0.014702,0.087046,0.139629,0
1.635803,-94.946014,354.166229,45,119,-0.381756,0.014652,0.087182,0.139532,0
1.677694,-95.029083,354.196014,44,117,-0.3818,0.014683,0.087182,0.13959,0
1.802988,-95.191872,354.730316,44,117,-0.381856,0.014764,0.087134,0.139639,0
1.601222,-95.3069,354.6651,45,116,-0.381762,0.014664,0.087202,0.139571,0
1.602548,-95.355202,354.908173,45,115,-0.381769,0.014664,0.087221,0.139532,0
1.820105,-95.456589,355.078613,45,118,-0.381831,0.014689,0.087153,0.139629,0
1.554514,-95.400543,354.889435,45,121,-0.381837,0.014714,0.087143,0.139629,0
0.871773,-95.647484,354.446594,44,127,-0.381762,0.014714,0.087211,0.139581,0
1.436735,-96.304062,356.488556,44,127,-0.381769,0.014714,0.087211,0.139581,0
4.580948,-96.89016,356.166901,44,131,-0.381843,0.014714,0.087153,0.139581,0
4.657852,-97.194992,356.560852,45,134,-0.381794,0.01467,0.087153,0.139581,0
4.914277,-97.170395,357.374634,45,139,-0.381794,0.014695,0.087192,0.139581,0
5.278998,-96.850342,357.574768,47,142,-0.381794,0.01467,0.087211,0.139581,0
4.82478,-95.402596,357.514709,89,129,-0.381825,0.014702,0.087221,0.139581,0
2.088601,-92.601524,357.513458,154,66,-0.381719,0.014658,0.087046,0.139629,0
3.846771,-88.123436,351.238831,181,8,-0.377786,0.008912,0.089073,0.172852,0
1.683224,-84.117416,346.02182,205,-9,-0.351094,-0.041257,0.100531,0.288458,0
0.128377,-79.939507,340.815887,217,-14,-0.302527,-0.148724,0.112213,0.457335,0
-2.540339,-79.16449,335.960571,218,-17,-0.230645,-0.238498,0.120192,0.623343,0
-1.044764,-78.218887,333.89563,219,-18,-0.179567,-0.304178,0.131835,0.767238,2
-0.469504,-80.688148,332.518188,213,-17,-0.125048,-0.343915,0.137981,0.888641,2
-0.742881,-83.515457,334.390869,212,-18,-0.08467,-0.355525,0.139212,0.920798,2
-0.660409,-85.03717,336.23349,209,-18,-0.044952,-0.360455,0.139522,0.872762,2
-2.314129,-87.451271,339.552063,213,-18,-0.002618,-0.362717,0.139571,0.742866,2
-2.741857,-89.587227,343.835571,215,-18,0.019039,-0.370108,0.139648,0.600774,2
-2.778077,-91.892815,348.151886,214,-19,0.023364,-0.374564,0.139581,0.456938,2
-1.061789,-92.896873,351.426575,215,-19,0.024243,-0.375524,0.139503,0.310959,2
-1.123812,-94.27697,353.104431,215,-18,0.024455,-0.375761,0.1396,0.192522,2
-0.361792,-94.686127,353.768188,216,-18,0.02448,-0.375755,0.139561,0.099717,2
-1.804047,-95.352501,356.22168,216,-18,0.02453,-0.37591,0.139629,0.092407,2
-1.815199,-95.861183,359.032898,216,-18,0.024486,-0.375748,0.139561,0.10438,2
-1.767125,-96.279076,359.789825,215,-19,0.024492,-0.375817,0.139561,0.107909,2
-1.538043,-96.841705,58.349041,214,-18,0.024561,-0.375948,0.139619,0.108665,2
-1.321326,-96.99675,261.875549,214,-18,0.024567,-0.375798,0.1396,0.10884,2
-1.281902,-96.87603,0.419117,215,-19,0.024499,-0.375798,0.139552,0.108878,2
-1.433201,-96.671165,0.306007,215,-19,0.024492,-0.375798,0.1396,0.108878,2
-1.365282,-96.532341,24.845346,216,-19,0.024499,-0.375804,0.139581,0.108878,2
-1.321936,-96.38485,359.601471,215,-18,0.024536,-0.375842,0.139581,0.108878,2
-1.351723,-96.238632,0.099894,215,-18,0.024548,-0.375842,0.139581,0.108898,2
-1.357361,-96.158943,359.421906,213,-18,0.024548,-0.375842,0.139581,0.108898,2
-1.387868,-96.105713,359.469543,212,-19,0.024548,-0.375842,0.139581,0.108898,2
-1.755755,-96.304581,359.758789,212,-18,0.024499,-0.375798,0.139581,0.108888,2
-2.663513,-97.235001,0.917773,215,-20,0.024492,-0.375792,0.139581,0.108869,2
-3.807627,-97.62175,2.622013,213,-19,0.024492,-0.375792,0.1396,0.108869,2
-4.431514,-98.194191,4.496672,206,-20,0.024629,-0.375798,0.13959,0.108869,2
-3.697433,-98.696846,6.681575,211,-19,0.024499,-0.375904,0.139513,0.108917,2
-2.488409,-98.382095,7.930621,225,-10,0.024523,-0.375811,0.139687,0.108849,2
0.762932,-96.283035,7.038517,163,44,0.024505,-0.375823,0.139532,0.108966,2
-1.397785,-91.771278,211.777145,63,75,0.022155,-0.374159,0.165765,0.110866,2
2.563105,-87.682976,308.178101,52,99,-0.00296,-0.354572,0.275603,0.119096,2
1.964027,-83.772415,329.248688,45,114,-0.081442,-0.309407,0.419411,0.129712,2
1.56697,-80.243942,332.564178,40,122,-0.171315,-0.25406,0.563674,0.137409,0
4.321334,-80.20369,332.118927,39,118,-0.261613,-0.200532,0.70751,0.139086,0
2.864521,-82.582558,331.841003,39,111,-0.333632,-0.153816,0.8541,0.139522,0
0.783807,-84.64946,332.940277,39,113,-0.360124,-0.106333,0.925189,0.13959,0
-0.129102,-87.448433,336.257172,39,118,-0.362094,-0.053085,0.915776,0.139581,0
0.294043,-89.303749,340.707764,39,121,-0.36306,-0.009859,0.820121,0.139464,0
1.185737,-90.253258,343.068237,41,126,-0.375861,0.008781,0.677729,0.139639,0
0.4456,-92.230057,344.848267,43,129,-0.380553,0.01343,0.533912,0.139629,0
-1.274196,-93.248466,348.491302,48,128,-0.381519,0.014415,0.390085,0.139522,0
-0.677984,-93.266373,350.969116,47,129,-0.381737,0.014627,0.269147,0.1396,0
-0.832509,-92.019325,350.587097,45,129,-0.381775,0.014652,0.132552,0.139561,0
1.235681,-92.493248,350.111603,45,123,-0.381843,0.014739,0.066368,0.139658,0
1.720577,-93.500847,349.353455,45,123,-0.381787,0.014689,0.073242,0.139619,0
0.130948,-93.629364,350.418365,45,120,-0.381775,0.014646,0.084264,0.139474,0
0.631365,-93.71389,351.285797,45,118,-0.381825,0.01472,0.086533,0.139629,0
2.105451,-94.122704,350.570312,45,119,-0.381843,0.014733,0.086998,0.139648,0
1.824569,-94.277222,351.055695,45,120,-0.381762,0.01467,0.087163,0.139561,0
1.461841,-94.362503,351.37439,45,120,-0.381794,0.014664,0.087192,0.139571,0
1.289177,-94.74189,351.788055,45,120,-0.381837,0.014714,0.087153,0.139639,0
1.254682,-94.769005,352.573151,46,120,-0.381812,0.014733,0.087143,0.13961,0
1.440185,-94.709595,352.503632,46,120,-0.381756,0.01467,0.087211,0.139552,0
1.384426,-94.916031,352.793213,44,124,-0.381856,0.014664,0.087211,0.139552,0
0.044826,-95.013405,353.471924,44,130,-0.381781,0.014689,0.087153,0.139639,0
0.211514,-95.29702,354.658203,45,130,-0.381775,0.014739,0.087153,0.139629,0
2.924079,-95.851578,354.236511,45,134,-0.381787,0.014714,0.087153,0.13959,0
4.597469,-96.741005,353.949768,46,133,-0.381812,0.01467,0.087221,0.139552,0
5.340531,-97.102951,354.458862,46,134,-0.381856,0.01467,0.087221,0.139552,0
5.445486,-96.785912,355.07196,47,131,-0.381787,0.014733,0.087153,0.139629,0
5.113841,-96.536163,354.985474,45,134,-0.381769,0.014664,0.087172,0.139629,0
5.306034,-95.938919,355.137268,79,131,-0.381812,0.014714,0.087202,0.139629,0
2.181679,-90.940498,353.814545,158,71,-0.381769,0.014646,0.087163,0.146987,0
4.847387,-86.570251,344.614655,187,18,-0.367322,-0.005036,0.093522,0.227684,0
3.97015,-82.768135,339.421539,216,-5,-0.328484,-0.082794,0.107259,0.367342,0
1.754481,-80.751373,336.693054,228,-12,-0.271067,-0.177934,0.114491,0.511382,0
-2.98162,-80.828453,335.444183,226,-16,-0.207686,-0.268132,0.125155,0.657128,0
-0.144313,-81.549728,335.063843,223,-17,-0.15366,-0.327692,0.135761,0.798813,2
-1.174368,-83.964249,335.217468,220,-17,-0.102114,-0.350807,0.138708,0.905636,2
0.068481,-85.929382,337.480652,219,-17,-0.066559,-0.359003,0.139367,0.926178,2
0.704462,-87.832359,337.631134,215,-18,-0.022554,-0.360997,0.139561,0.860818,2
-1.467332,-89.206482,339.505707,215,-18,0.012851,-0.365833,0.139561,0.724136,2
-1.867689,-91.033165,342.329254,211,-17,0.022249,-0.373262,0.139629,0.579873,2
-2.234806,-92.361374,346.078613,209,-19,0.023882,-0.375281,0.139552,0.436056,2
-1.790776,-93.636757,350.354126,210,-18,0.02433,-0.375636,0.139464,0.315554,2
-0.709224,-94.549362,352.090302,206,-19,0.024455,-0.375811,0.139571,0.174015,2
-1.937368,-95.130707,353.467987,203,-18,0.024536,-0.375811,0.139629,0.092737,2
-2.365639,-95.962502,355.245087,206,-19,0.024499,-0.375804,0.139552,0.09106,2
-1.896362,-96.444656,356.971283,207,-19,0.024499,-0.375792,0.139571,0.10501,2
-2.274948,-96.809708,358.264496,206,-19,0.024517,-0.375929,0.139619,0.108035,2
-1.838981,-97.178688,359.743805,208,-19,0.024604,-0.375811,0.13961,0.108646,2
-1.534256,-97.131142,359.480225,210,-19,0.024492,-0.375804,0.139513,0.108859,2
-1.565867,-96.992462,358.742218,212,-18,0.024486,-0.375823,0.139571,0.108878,2
-1.542122,-97.066719,358.80658,213,-19,0.024548,-0.375829,0.13961,0.108878,2
-1.21693,-97.120857,359.433105,215,-19,0.024561,-0.375792,0.13959,0.108878,2
-1.162965,-96.966599,358.769104,214,-19,0.024561,-0.375786,0.139532,0.108878,2
-1.323888,-96.989082,358.50061,214,-19,0.024505,-0.375792,0.13961,0.108898,2
-1.197946,-96.987907,358.283783,213,-19,0.024499,-0.375848,0.1396,0.108898,2
-1.155819,-96.951042,357.943665,212,-20,0.024499,-0.375848,0.139561,0.108898,2
-1.21201,-96.963562,358.052216,209,-20,0.024505,-0.375848,0.139552,0.108898,2
-1.480079,-97.007935,357.952393,210,-20,0.024555,-0.375798,0.139619,0.108869,2
-1.508258,-97.728279,0.17633,213,-20,0.024561,-0.375792,0.139571,0.108869,2
-3.691534,-98.190178,23.88678,216,-19,0.024555,-0.375792,0.139581,0.108869,2
-4.260804,-98.146492,9.620042,212,-20,0.024511,-0.375798,0.139639,0.108907,2
-4.189789,-98.906967,6.628502,201,-20,0.024505,-0.375885,0.139552,0.108907,2
-3.805238,-99.22364,7.240257,212,-19,0.024474,-0.375773,0.139542,0.108907,2
-2.294953,-98.55809,7.653017,232,-11,0.024642,-0.375948,0.139571,0.108791,2
-0.936215,-97.210594,6.492878,176,46,0.024542,-0.375829,0.139455,0.109101,2
-0.97652,-91.193298,215.101074,74,52,0.024517,-0.375786,0.142867,0.108898,2
1.73891,-86.727531,310.253845,57,72,0.015506,-0.368307,0.209943,0.116004,2
1.377707,-83.412201,330.300842,43,88,-0.034009,-0.329207,0.345491,0.125165,2
2.125753,-81.479866,333.279907,40,101,-0.140261,-0.274339,0.512642,0.135557,2
3.426331,-81.087708,332.813202,40,103,-0.227729,-0.218586,0.656896,0.138698,0
3.269151,-82.027512,330.865875,40,103,-0.308348,-0.171608,0.800703,0.139377,0
1.68798,-84.008873,331.155701,40,106,-0.352384,-0.128114,0.918578,0.139552,0
-0.844843,-85.662056,332.590912,40,108,-0.36253,-0.07807,0.952586,0.139396,0
0.362812,-87.853905,335.451721,40,105,-0.361471,-0.027241,0.901399,0.1396,0
2.280226,-89.46579,337.022247,40,106,-0.369747,0.005048,0.769671,0.1396,0
2.882266,-91.191925,339.070648,43,103,-0.379095,0.012022,0.62757,0.139639,0
1.450151,-92.291679,341.834869,46,101,-0.381202,0.014116,0.485469,0.139561,0
1.842109,-93.424652,343.979462,46,100,-0.381656,0.014589,0.33948,0.139503,0
2.640701,-93.31356,345.819489,47,96,-0.381744,0.01467,0.197389,0.1396,0
4.081611,-94.338921,346.941467,45,92,-0.381794,0.014664,0.089354,0.139639,0
5.609296,-95.031487,347.273193,46,92,-0.38185,0.01477,0.061695,0.139648,0
4.283886,-95.253151,346.809448,45,99,-0.381731,0.014621,0.080415,0.139416,0
2.667476,-94.959305,348.279144,45,102,-0.38185,0.014808,0.085747,0.139707,0
2.150238,-93.201347,347.260742,43,107,-0.381806,0.014664,0.086853,0.139581,0
2.596867,-93.846535,347.207458,44,110,-0.381787,0.01467,0.087095,0.139639,0
2.497741,-93.786789,346.843353,43,114,-0.381787,0.014702,0.087163,0.139581,0
1.967631,-94.022797,347.632996,42,119,-0.381787,0.01472,0.087192,0.139571,0
0.922095,-94.660385,349.071442,43,123,-0.381787,0.01472,0.087192,0.139571,0
1.39863,-94.854263,350.502899,44,123,-0.3818,0.014714,0.087192,0.139571,0
2.669031,-94.825706,349.604706,44,125,-0.381818,0.014664,0.087182,0.139629,0
3.939734,-95.15802,349.050446,44,129,-0.381825,0.014664,0.087153,0.139629,0
4.69687,-95.27211,348.991913,45,131,-0.381825,0.014683,0.087153,0.13961,0
4.941155,-95.366081,348.939209,44,127,-0.381787,0.014758,0.087192,0.139571,0
5.423575,-95.422104,349.950836,44,126,-0.381775,0.014664,0.087231,0.139532,0
5.40635,-94.99791,351.180725,46,129,-0.381775,0.014689,0.087095,0.139542,0
5.158141,-93.909477,350.522064,136,97,-0.381781,0.014683,0.087308,0.13959,0
6.636309,-89.416092,348.202881,191,25,-0.381837,0.014708,0.087095,0.139687,0
5.857567,-84.641907,340.015808,217,2,-0.377194,0.007915,0.089111,0.191931,0
3.390726,-80.132484,334.259827,226,-10,-0.349573,-0.057161,0.101171,0.321943,0
0.355698,-78.4496,332.710999,225,-14,-0.29192,-0.14992,0.112514,0.466186,0
-1.127684,-77.807266,330.951294,227,-15,-0.228464,-0.238473,0.121064,0.610023,0
-2.217752,-79.145828,330.992096,224,-16,-0.174444,-0.309451,0.132814,0.755992,2
-2.053997,-81.739532,331.700531,224,-17,-0.119819,-0.344793,0.138156,0.882039,2
-1.35868,-85.232613,334.798462,221,-17,-0.081635,-0.356148,0.139241,0.930037,2
0.600395,-86.047401,336.095032,216,-18,-0.042254,-0.360804,0.139571,0.877725,2
-0.996427,-88.211067,337.931,218,-19,0.003627,-0.363272,0.139571,0.745823,2
-1.386965,-90.715965,341.372406,221,-18,0.019669,-0.371654,0.139571,0.603508,2
-1.630443,-92.039307,345.105347,222,-20,0.023452,-0.374639,0.139571,0.457733,2
-0.817863,-93.622925,348.204041,225,-19,0.024231,-0.375512,0.13959,0.338966,2
-0.159586,-93.927261,349.652557,225,-19,0.024505,-0.37573,0.139571,0.19544,2
-0.668566,-94.310242,350.401917,226,-19,0.024467,-0.375929,0.139648,0.100958,2
-1.323383,-95.15313,351.710999,222,-20,0.024598,-0.375811,0.13959,0.091826,2
0.193495,-95.564873,352.967773,220,-18,0.024461,-0.375773,0.139532,0.105417,2
0.027374,-95.525215,352.62088,206,-20,0.024523,-0.375836,0.139552,0.107889,2
-0.790081,-96.557655,353.703125,202,-19,0.024611,-0.375836,0.139629,0.108675,2
-1.762688,-97.425644,355.858765,198,-19,0.024499,-0.375842,0.139561,0.108849,2
-2.244236,-97.779556,357.707855,187,-20,0.024492,-0.375836,0.139561,0.108878,2
-2.4848,-98.258049,196.515457,180,-19,0.024499,-0.375798,0.139619,0.108878,2
-2.332658,-98.880722,0.194507,177,-20,0.024548,-0.375798,0.139571,0.108878,2
-3.314903,-99.397461,1.579197,171,-20,0.024548,-0.375798,0.139581,0.108907,2
-4.50241,-99.706169,3.066914,164,-20,0.024548,-0.375798,0.139571,0.108907,2
-5.229409,-100.358582,5.422611,162,-20,0.024523,-0.375798,0.1396,0.108898,2
-4.555302,-100.682991,7.342569,181,-20,0.024499,-0.375848,0.139581,0.108878,2
-4.637422,-100.494347,8.439886,202,-20,0.024499,-0.375848,0.13959,0.108849,2
-3.999799,-99.75827,8.902932,224,-20,0.024499,-0.375848,0.139581,0.108849,2
-2.279027,-97.786865,6.926108,252,6,0.024586,-0.375742,0.13959,0.108898,2
2.287812,-92.040878,167.136307,153,29,0.024486,-0.375836,0.139445,0.108927,2
0.072905,-90.796333,295.384827,72,79,0.024486,-0.375767,0.144593,0.108907,2
1.320886,-87.298271,330.656647,52,108,0.012882,-0.367055,0.217146,0.114996,2
2.042746,-83.26091,336.385864,42,120,-0.036776,-0.33284,0.356794,0.124166,2
1.682216,-79.838867,333.978943,40,127,-0.127815,-0.280104,0.500611,0.134937,2
3.783785,-79.695335,331.603241,39,123,-0.219147,-0.224002,0.644448,0.138582,0
3.445266,-80.651245,329.760925,40,118,-0.303711,-0.173721,0.788682,0.139396,0
3.219872,-83.474602,328.615631,40,122,-0.351138,-0.128314,0.908922,0.13959,0
-0.33183,-85.431511,330.814423,40,123,-0.362343,-0.079734,0.945887,0.139396,0
0.977361,-87.860718,334.500397,41,119,-0.361427,-0.021532,0.896251,0.13959,0
2.842072,-89.798492,337.634491,41,119,-0.369186,0.004755,0.744262,0.13961,0
2.747082,-91.936127,339.753204,43,117,-0.379039,0.011897,0.627211,0.139639,0
0.447509,-93.512383,343.505219,46,115,-0.381195,0.014078,0.482958,0.139552,0
1.026067,-94.746399,347.543335,47,110,-0.38165,0.014558,0.339131,0.139581,0
0.995798,-95.033058,349.416473,46,109,-0.38175,0.014639,0.223787,0.13959,0
2.20936,-95.664001,351.29895,45,109,-0.3818,0.014708,0.10247,0.139629,0
3.59096,-96.076332,351.088593,44,107,-0.381818,0.014708,0.063731,0.139629,0
2.233264,-96.077202,351.254333,44,108,-0.381737,0.014633,0.080987,0.139464,0
1.316138,-96.100372,352.245148,45,108,-0.381794,0.014683,0.085457,0.13959,0
2.261214,-96.259903,352.46875,44,110,-0.381868,0.014783,0.086804,0.139658,0
2.216419,-96.167107,351.738495,44,113,-0.381769,0.014664,0.087124,0.139571,0
1.077724,-95.673981,350.326141,45,117,-0.381787,0.014658,0.087163,0.139522,0
-0.123343,-95.904549,351.946777,45,122,-0.381812,0.014708,0.087143,0.139648,0
1.262909,-96.680374,353.440094,44,127,-0.38185,0.014751,0.087134,0.139639,0
4.920791,-97.107353,352.79953,44,128,-0.381769,0.014683,0.087211,0.139561,0
5.7855,-96.993309,352.437866,44,129,-0.381769,0.014664,0.087202,0.139542,0
5.86811,-96.707527,352.303375,45,129,-0.381837,0.014764,0.087153,0.13961,0
4.277354,-95.813225,352.873413,47,131,-0.381769,0.01467,0.087182,0.139619,0
5.982943,-95.044884,352.897186,142,104,-0.381825,0.014714,0.087231,0.13961,0
4.181409,-88.18364,349.512939,165,45,-0.381812,0.014677,0.087056,0.142683,0
2.2028,-84.482025,340.260864,180,18,-0.370819,-0.001035,0.092107,0.208877,0
1.616822,-81.438377,336.352295,195,3,-0.335246,-0.073359,0.105941,0.347963,0
2.278561,-78.920601,334.515167,223,-11,-0.278452,-0.166859,0.113822,0.49177,0
-3.262712,-78.515686,332.441772,228,-15,-0.215632,-0.256459,0.123662,0.635597,0
-4.032968,-80.899071,333.232361,222,-17,-0.162466,-0.321585,0.134772,0.802341,2
-1.250667,-83.402016,334.693848,217,-15,-0.107991,-0.349524,0.138543,0.907594,2
-1.319881,-85.306374,337.123993,212,-16,-0.072941,-0.359333,0.139367,0.926857,2
-0.546912,-85.99501,337.20932,214,-16,-0.030631,-0.361059,0.139561,0.859645,2
-3.13716,-89.156845,340.46698,220,-18,0.011735,-0.365852,0.139561,0.722323,2
-2.68324,-91.315491,343.788086,224,-16,0.021208,-0.372433,0.139581,0.57806,2
-2.292029,-92.727882,347.140228,224,-17,0.023763,-0.375057,0.13961,0.459284,2
-1.136073,-93.997726,350.074127,225,-17,0.024349,-0.375636,0.139513,0.315457,2
-1.285286,-94.356903,352.198761,228,-18,0.024474,-0.375804,0.139532,0.172997,2
-1.335408,-95.377754,352.861053,228,-17,0.024474,-0.375804,0.139639,0.094957,2
-1.092918,-95.917969,353.691223,227,-18,0.024542,-0.375798,0.139571,0.094085,2
-0.125409,-95.993797,354.27948,225,-18,0.024542,-0.375773,0.13959,0.105854,2
-0.396328,-95.901512,354.306091,225,-17,0.02453,-0.375823,0.13959,0.108229,2
-0.935246,-96.163361,354.192871,223,-18,0.024517,-0.375817,0.1396,0.108694,2
-1.086251,-96.439766,355.113983,221,-17,0.024511,-0.375748,0.139571,0.108859,2
-1.002149,-96.546638,355.650299,216,-17,0.024511,-0.375823,0.139571,0.108878,2
-1.284357,-96.924049,356.445679,214,-18,0.024511,-0.375873,0.139581,0.108878,2
-0.848222,-97.370743,357.575623,221,-18,0.024511,-0.375817,0.13959,0.108878,2
-2.495754,-97.948845,0.211274,225,-18,0.024517,-0.375767,0.139571,0.108927,2
-4.350743,-98.032463,1.319837,224,-18,0.024567,-0.375829,0.1396,0.108888,2
-4.661359,-98.460449,2.840264,228,-17,0.024536,-0.375829,0.13961,0.10882,2
-4.648505,-98.733345,4.523677,239,-18,0.024511,-0.375773,0.139571,0.108917,2
-3.252241,-98.382278,5.456155,253,-14,0.024511,-0.375885,0.139561,0.108917,2
-1.302913,-97.206734,4.907694,260,18,0.024536,-0.375823,0.139561,0.108898,2
1.451926,-92.413849,175.164886,111,35,0.024486,-0.375786,0.1396,0.108898,2
0.26803,-89.698006,292.069733,60,68,0.024505,-0.375792,0.148005,0.108898,2
1.229189,-85.763809,326.066772,50,85,0.008868,-0.363515,0.229274,0.116081,2
2.231034,-82.185822,333.874878,41,98,-0.050661,-0.325187,0.370909,0.125514,2
4.272796,-79.633453,331.705475,40,103,-0.143464,-0.270768,0.515172,0.135955,2
4.558264,-80.108711,329.20697,40,102,-0.23469,-0.215227,0.65899,0.13896,0
5.511063,-81.863029,328.701111,41,103,-0.312318,-0.167682,0.802816,0.139426,0
2.240722,-84.769005,329.669678,41,104,-0.354864,-0.121745,0.908883,0.139552,0
0.231378,-86.489769,332.384338,41,104,-0.362293,-0.062066,0.928456,0.139532,0
1.971024,-88.1464,336.136566,42,107,-0.361259,-0.015362,0.861788,0.13961,0
3.967017,-90.091537,337.628113,42,106,-0.372682,0.007373,0.700928,0.139629,0
4.789529,-91.992989,339.511047,44,106,-0.379849,0.012763,0.580436,0.139619,0
2.481924,-92.95977,342.376343,45,106,-0.38137,0.014259,0.436609,0.139561,0
3.0769,-93.397629,344.371124,49,105,-0.381663,0.014565,0.317832,0.139552,0
3.827578,-92.724335,345.350555,46,106,-0.381769,0.014664,0.17229,0.139629,0
4.319092,-93.01458,344.884094,46,106,-0.381806,0.014689,0.081094,0.139581,0
5.240687,-93.529594,344.354095,46,107,-0.38185,0.014764,0.069422,0.13961,0
4.011601,-93.933273,344.39566,47,107,-0.38175,0.014646,0.083392,0.139619,0
3.228779,-93.945999,346.169983,46,108,-0.3818,0.014689,0.086348,0.139532,0
3.697451,-94.20163,346.697815,44,109,-0.381843,0.014764,0.08694,0.13959,0
3.611472,-94.253059,346.667816,45,109,-0.381787,0.014664,0.087153,0.139639,0
2.934413,-94.320503,347.268616,44,111,-0.381762,0.014658,0.087172,0.139581,0
2.647518,-94.995827,348.264771,45,117,-0.381812,0.014702,0.087172,0.139581,0
3.94658,-95.995171,349.463135,44,117,-0.381825,0.01472,0.087172,0.139581,0
5.923961,-96.35804,350.436737,44,122,-0.381825,0.01472,0.087163,0.139581,0
6.359562,-96.72744,350.366394,46,123,-0.381794,0.014683,0.087172,0.139581,0
5.784067,-96.968414,351.158447,44,124,-0.381787,0.014677,0.087182,0.139581,0
5.225368,-96.618767,352.56189,46,129,-0.381781,0.014689,0.087211,0.13959,0
3.779524,-95.969582,352.959076,44,136,-0.381794,0.014695,0.087105,0.1396,0
5.208045,-93.953453,352.178925,129,120,-0.381818,0.014695,0.08726,0.1396,0
2.199681,-90.28746,351.93454,165,52,-0.381737,0.014677,0.087056,0.139561,0
4.287372,-85.269424,342.96283,181,18,-0.376502,0.00703,0.089111,0.177854,0
3.326494,-80.807365,336.059509,202,-2,-0.347448,-0.043394,0.101772,0.299171,0
2.194739,-79.150658,332.942413,219,-12,-0.297579,-0.136845,0.111825,0.441049,0
-1.115878,-77.625542,332.202698,225,-15,-0.231013,-0.229785,0.120832,0.585302,0
-2.592388,-79.580032,331.745026,220,-15,-0.17655,-0.306977,0.132436,0.729139,2
0.446829,-81.784492,332.233582,220,-14,-0.119881,-0.344656,0.138078,0.864919,2
-0.82813,-85.826378,335.742981,216,-14,-0.08108,-0.356105,0.139222,0.927487,2
1.35842,-86.761284,337.14386,213,-14,-0.042254,-0.360654,0.139532,0.903697,2
-1.618489,-88.568367,339.722656,215,-15,0.000268,-0.363066,0.139542,0.793946,2
-2.576843,-90.873657,343.159271,216,-16,0.020198,-0.371267,0.139581,0.650138,2
-2.592637,-92.479782,346.950653,215,-16,0.023595,-0.374789,0.139629,0.507184,2
-1.744869,-93.80439,350.21344,214,-16,0.024262,-0.375568,0.139552,0.363765,2
-0.736426,-94.36602,352.013885,215,-15,0.024573,-0.375867,0.139658,0.243272,2
-1.566738,-94.50518,352.743378,217,-16,0.024492,-0.375798,0.13961,0.121975,2
-2.022675,-95.304367,353.55307,218,-16,0.024492,-0.375798,0.13961,0.082917,2
-1.290921,-95.755409,354.661316,216,-15,0.024548,-0.375792,0.139455,0.101898,2
-0.758685,-95.759323,354.760681,215,-16,0.024511,-0.375798,0.1396,0.106968,2
-1.126547,-96.070587,355.534119,219,-16,0.024511,-0.375892,0.1396,0.108461,2
-1.408357,-96.383041,356.179596,220,-17,0.024511,-0.375854,0.139552,0.10882,2
-1.093814,-96.40033,356.481445,223,-16,0.024511,-0.375748,0.139522,0.108869,2
-1.137463,-96.508812,356.770905,223,-17,0.024536,-0.375829,0.139619,0.108878,2
-0.772544,-96.730957,356.898285,224,-17,0.024561,-0.375923,0.13961,0.108878,2
-0.931464,-96.886864,357.25293,222,-17,0.024548,-0.375798,0.139513,0.108898,2
-1.159018,-97.273872,359.756622,223,-18,0.024492,-0.375761,0.1396,0.108898,2
-0.789996,-96.776436,358.405304,223,-19,0.024492,-0.375823,0.13959,0.108898,2
-1.248088,-96.397591,357.654175,227,-18,0.024567,-0.375804,0.1396,0.108888,2
-2.012482,-96.767914,357.847382,230,-18,0.024573,-0.375798,0.1396,0.108878,2
-2.114147,-96.841576,0.311296,234,-18,0.024492,-0.375773,0.139532,0.108878,2
-2.394088,-96.448242,0.156207,250,-19,0.024499,-0.375885,0.139639,0.108859,2
-2.236805,-95.386536,243.057846,274,-11,0.024555,-0.375885,0.139532,0.108859,2
-0.69083,-94.31884,359.139923,269,6,0.024517,-0.375792,0.1396,0.108956,2
0.651295,-92.991386,354.968689,136,31,0.024474,-0.375798,0.139542,0.108917,2
-3.542916,-88.750755,353.563843,71,77,0.022292,-0.374059,0.165019,0.110681,2
0.669916,-84.850792,346.671448,50,99,-0.00268,-0.353487,0.273926,0.119339,2
2.197949,-81.886658,339.499359,42,114,-0.081809,-0.308223,0.417724,0.129178,2
4.502648,-80.006226,334.329224,41,121,-0.172362,-0.251847,0.561977,0.137254,0
5.054646,-79.421097,330.631165,41,118,-0.261139,-0.198824,0.705804,0.139067,0
5.14055,-82.471741,328.573517,40,123,-0.330048,-0.152681,0.846916,0.139542,0
1.937924,-84.772072,329.634491,40,126,-0.359875,-0.105573,0.926566,0.139522,0
0.816686,-86.456894,332.937592,41,121,-0.362144,-0.053185,0.918093,0.13959,0
3.286019,-89.088966,336.196259,43,122,-0.362542,-0.005279,0.799986,0.139629,0
3.305929,-90.790024,338.413849,44,120,-0.375829,0.008607,0.681229,0.139619,0
3.47841,-92.465515,340.992859,44,115,-0.380547,0.013374,0.537412,0.139581,0
1.499939,-93.911858,344.506012,45,115,-0.381513,0.014396,0.393585,0.139532,0
1.183889,-95.203903,348.433136,44,109,-0.3817,0.014614,0.249331,0.1396,0
1.67067,-95.838089,351.269806,43,109,-0.381787,0.014677,0.135596,0.13961,0
3.124295,-96.292427,352.496185,44,108,-0.381856,0.014745,0.065234,0.139639,0
3.330958,-96.817482,352.628235,43,106,-0.381762,0.014652,0.074773,0.139561,0
1.972008,-96.70076,353.360352,44,110,-0.381781,0.014658,0.084012,0.139581,0
2.523721,-96.711678,354.132172,44,111,-0.381818,0.014739,0.086465,0.139619,0
2.984111,-96.742905,353.857086,43,115,-0.381843,0.014708,0.087027,0.13961,0
2.693509,-96.36264,353.782623,43,123,-0.38175,0.014658,0.087153,0.139571,0
2.544771,-96.524323,352.7435,43,126,-0.381825,0.01467,0.087153,0.139542,0
2.191839,-95.710411,353.14325,44,129,-0.381831,0.014714,0.087153,0.139629,0
2.737755,-95.039062,351.40918,43,128,-0.381806,0.014733,0.087153,0.139629,0
3.380323,-95.028,349.729462,43,123,-0.381775,0.014714,0.087211,0.139619,0
5.366066,-95.519951,349.250336,43,124,-0.381769,0.014664,0.087231,0.139552,0
7.306294,-96.326271,349.176849,43,117,-0.381794,0.01467,0.087153,0.139552,0
8.580149,-96.126236,348.00119,44,114,-0.381862,0.01477,0.087114,0.139561,0
7.266633,-95.472168,347.102112,45,116,-0.381787,0.014689,0.087211,0.139639,0
6.357319,-94.965897,346.96051,43,123,-0.381769,0.014664,0.087211,0.139629,0
6.610908,-94.623512,346.867828,43,127,-0.381794,0.014689,0.087182,0.139542,0
6.276666,-94.6875,347.01825,43,131,-0.38185,0.014739,0.087134,0.139532,0
6.058,-93.750687,348.410309,60,129,-0.381812,0.014708,0.087202,0.13959,0
5.307479,-92.950684,349.040497,154,80,-0.381769,0.014633,0.087211,0.1396,0
7.845018,-86.671051,342.394806,166,23,-0.37649,0.006513,0.089557,0.181848,0
4.766013,-82.258789,336.59903,187,2,-0.347436,-0.048112,0.102015,0.307547,0
0.839342,-80.97435,334.737915,218,-12,-0.295142,-0.139968,0.111942,0.450084,0
-3.382932,-78.811012,334.151581,225,-14,-0.23072,-0.231742,0.120754,0.593911,0
-4.382666,-81.324272,334.774231,219,-14,-0.175927,-0.307569,0.132756,0.739473,2
-2.872063,-82.594398,335.589417,220,-14,-0.121327,-0.344195,0.138107,0.869475,2
-2.350753,-86.163605,338.598724,218,-14,-0.081922,-0.356049,0.139232,0.921205,2
0.273688,-86.351173,339.328613,220,-15,-0.042759,-0.360548,0.139552,0.873508,2
-2.294723,-88.27877,341.138092,222,-15,-0.001278,-0.363359,0.139571,0.7456,2
-1.920832,-90.141014,343.978668,230,-14,0.019675,-0.370613,0.139571,0.601773,2
-1.687211,-91.702187,346.640411,230,-17,0.023433,-0.374645,0.139571,0.481271,2
0.284662,-92.367554,348.516632,232,-17,0.024262,-0.375536,0.139571,0.337018,2
-0.514137,-93.086227,349.243011,234,-16,0.024511,-0.375792,0.139552,0.193511,2
-0.708779,-93.564941,350.190094,236,-17,0.024467,-0.375792,0.139678,0.109673,2
-1.314714,-94.301025,351.547729,236,-17,0.02458,-0.375792,0.139581,0.088811,2
-0.045901,-94.815605,353.117859,234,-17,0.024467,-0.375792,0.139552,0.10469,2
-0.380805,-95.225952,353.242828,233,-16,0.024523,-0.375823,0.13961,0.107696,2
-1.502126,-95.669518,354.610626,234,-15,0.024592,-0.375842,0.139629,0.108597,2
-1.368388,-95.970818,355.483337,233,-17,0.024492,-0.375755,0.139522,0.108849,2
-0.824177,-96.060471,356.001587,230,-17,0.02448,-0.375817,0.139561,0.108878,2
-0.899801,-96.422676,356.14093,228,-17,0.024536,-0.375873,0.13961,0.108878,2
-0.69376,-96.828445,356.843811,226,-17,0.024561,-0.375817,0.1396,0.108878,2
-0.898131,-96.976402,355.36731,222,-17,0.024555,-0.375742,0.139542,0.108878,2
-2.113174,-97.451942,0.227093,219,-17,0.024499,-0.375823,0.139571,0.108898,2
-3.208095,-98.259308,24.62326,220,-17,0.024492,-0.375798,0.1396,0.108898,2
-3.731304,-98.205711,9.780886,225,-17,0.024505,-0.375798,0.1396,0.108898,2
-4.132818,-98.068176,6.03678,225,-16,0.024586,-0.375798,0.13961,0.108888,2
-4.605003,-97.774147,5.62669,227,-16,0.024505,-0.375842,0.139552,0.108869,2
-2.679542,-96.855469,4.852714,239,-11,0.024536,-0.375823,0.139552,0.108888,2
-1.037666,-96.14476,4.179132,206,22,0.024523,-0.375823,0.139552,0.108927,2
-0.598977,-91.558136,179.57135,110,40,0.024455,-0.37578,0.150002,0.110236,2
-1.984264,-88.508331,301.587646,70,75,0.007734,-0.361664,0.234702,0.118369,2
-0.612393,-84.591919,333.432434,54,100,-0.056737,-0.323616,0.377531,0.128287,2
0.948884,-81.587425,337.042328,39,123,-0.148337,-0.268231,0.521348,0.137031,0
4.195138,-81.173058,334.496277,39,125,-0.237389,-0.213202,0.667346,0.138989,0
3.605705,-80.357872,331.729187,39,122,-0.318917,-0.158303,0.833965,0.139464,0
3.015757,-83.416458,330.654297,39,127,-0.356466,-0.112926,0.924782,0.139571,0
0.721224,-84.935486,331.0354,40,129,-0.362349,-0.059367,0.929106,0.139513,0
2.39203,-86.886406,334.39621,41,127,-0.361608,-0.013804,0.847178,0.13961,0
4.115468,-89.162254,336.399963,42,129,-0.374508,0.007292,0.704961,0.13961,0
4.673414,-91.325485,338.789856,42,129,-0.379737,0.013094,0.561997,0.139619,0
2.446174,-92.886612,341.945068,45,128,-0.381345,0.014228,0.44323,0.13961,0
2.27483,-94.002144,345.40155,45,125,-0.381675,0.014577,0.299403,0.139484,0
2.502195,-93.538239,347.576508,44,126,-0.381737,0.014646,0.156953,0.139581,0
3.369194,-93.593788,348.235779,43,124,-0.381812,0.014714,0.079155,0.139648,0
4.608082,-94.152725,347.929962,44,127,-0.38185,0.014751,0.065496,0.139639,0
4.037135,-94.505646,348.204071,43,127,-0.381731,0.014627,0.082635,0.139464,0
2.993046,-94.259651,349.165222,44,124,-0.381818,0.014776,0.085893,0.139658,0
2.694941,-94.613388,349.744934,44,128,-0.381862,0.014708,0.086901,0.139629,0
2.79476,-94.655556,350.204407,44,129,-0.381762,0.01467,0.087143,0.139542,0
2.357176,-94.561119,350.363159,43,128,-0.381756,0.014658,0.087172,0.139532,0
2.185398,-94.977737,350.702637,43,132,-0.381825,0.014702,0.087172,0.139648,0
1.692004,-95.302628,351.827087,43,136,-0.38185,0.014758,0.087172,0.139629,0
3.91507,-95.644119,352.236633,43,136,-0.381762,0.014664,0.087163,0.139522,0
4.183555,-95.627884,352.248932,43,140,-0.381775,0.01467,0.087172,0.1396,0
4.94219,-95.947868,352.227173,43,143,-0.381843,0.014758,0.087172,0.139648,0
5.078112,-95.97187,352.889862,42,148,-0.381775,0.01467,0.087221,0.139542,0
4.18186,-95.076286,353.519958,43,153,-0.381787,0.014677,0.087114,0.139522,0
5.225593,-93.75383,352.980103,141,131,-0.381806,0.014689,0.08726,0.139581,0
3.962655,-89.422905,351.918579,173,42,-0.381781,0.014683,0.087085,0.139678,0
4.089738,-85.722481,344.462646,200,6,-0.381769,0.01467,0.087308,0.152823,0
2.311822,-81.092812,338.846588,213,-10,-0.364287,-0.015107,0.094666,0.243524,0
0.209658,-78.024055,335.133331,210,-14,-0.321859,-0.100531,0.10883,0.38548,0
0.168299,-78.923264,333.651398,219,-13,-0.260547,-0.193602,0.115345,0.53016,0
-2.759224,-80.68689,333.996826,225,-13,-0.201261,-0.279088,0.126425,0.672271,0
-2.158555,-82.685387,334.88031,226,-13,-0.14754,-0.33236,0.136585,0.8157,2
-3.125449,-83.593422,336.430573,219,-13,-0.097502,-0.351817,0.138892,0.907875,2
1.220668,-84.899826,336.99881,221,-14,-0.062714,-0.359769,0.139406,0.913449,2
-0.934826,-87.189568,338.162994,223,-14,-0.017612,-0.361115,0.139561,0.832636,2
-2.699074,-89.243416,341.958923,228,-15,0.014988,-0.367061,0.139561,0.690671,2
-2.736455,-91.37291,345.791168,226,-16,0.022049,-0.373872,0.139639,0.547077,2
-1.341094,-92.654785,349.315002,230,-16,0.023981,-0.375262,0.139532,0.40324,2
-0.5519,-93.451927,350.826935,232,-15,0.02438,-0.375674,0.139522,0.282738,2
-0.321955,-93.292923,351.862183,232,-15,0.024505,-0.375798,0.139571,0.146793,2
-1.022619,-94.364792,352.367371,235,-14,0.024505,-0.375792,0.139629,0.082965,2
-0.98749,-94.920952,353.895721,234,-15,0.024505,-0.375792,0.139561,0.092853,2
-0.156338,-94.859337,354.506622,236,-15,0.024505,-0.375792,0.139581,0.105543,2
-0.478373,-95.171326,354.689392,237,-15,0.02453,-0.375892,0.139619,0.108161,2
-0.431818,-95.677368,355.25708,238,-15,0.024555,-0.375873,0.139619,0.108684,2
-0.102308,-95.789627,355.756165,238,-15,0.024486,-0.375798,0.139513,0.108859,2
-0.079908,-95.870361,355.839264,235,-15,0.024492,-0.375829,0.13959,0.108869,2
0.073887,-96.164864,356.017822,233,-15,0.024555,-0.375829,0.139619,0.108888,2
-0.01597,-96.37101,356.72403,228,-15,0.024555,-0.375829,0.139561,0.108888,2
-0.116335,-96.568436,357.062195,228,-16,0.024511,-0.375829,0.139552,0.108888,2
-2.294744,-97.489624,0.390538,224,-16,0.024499,-0.375829,0.13961,0.108888,2
-3.991376,-98.141922,2.844599,217,-14,0.024505,-0.375829,0.139619,0.108888,2
-4.527756,-98.117905,4.578711,218,-15,0.024561,-0.375755,0.13959,0.108888,2
-4.148374,-97.70459,6.156319,223,-17,0.024511,-0.375842,0.139571,0.108888,2
-2.869693,-97.132782,6.320657,232,-14,0.02453,-0.375811,0.139561,0.10883,2
-2.585755,-96.275787,5.73299,232,16,0.02453,-0.375842,0.139561,0.108888,2
1.348852,-92.436531,150.245422,125,44,0.024499,-0.375761,0.139619,0.108927,2
-2.595108,-88.4422,296.370636,63,91,0.022137,-0.373966,0.165542,0.110895,2
-0.915124,-84.121231,332.743195,49,110,-0.002275,-0.35411,0.273335,0.118951,2
0.737084,-80.953117,337.281799,41,120,-0.08209,-0.305574,0.424471,0.129964,2
1.58939,-80.645248,337.08374,41,121,-0.172786,-0.252844,0.561405,0.137787,0
2.839625,-81.244431,335.465363,41,115,-0.260541,-0.200239,0.705222,0.139183,0
2.969019,-82.750198,334.379486,42,113,-0.33284,-0.152818,0.846616,0.139455,0
1.074203,-86.09417,335.504944,42,114,-0.360006,-0.106401,0.926866,0.13959,0
-0.705139,-88.375969,339.136902,41,118,-0.362087,-0.044728,0.911375,0.139542,0
0.975301,-89.516907,342.49762,41,123,-0.364431,-0.005759,0.802845,0.139542,0
2.472554,-90.011696,343.434967,43,125,-0.375624,0.010034,0.66056,0.1396,0
2.864879,-91.677818,343.399231,43,131,-0.380472,0.013418,0.53811,0.139668,0
0.500688,-92.583939,346.430389,47,125,-0.381519,0.014409,0.396018,0.139581,0
1.266572,-92.636459,349.066711,45,130,-0.381737,0.014639,0.252201,0.139581,0
1.346394,-92.278854,349.229065,46,130,-0.3818,0.01467,0.11928,0.139619,0
3.956937,-92.979881,348.99408,43,128,-0.381843,0.014714,0.060939,0.139639,0
4.39513,-93.726913,348.326569,44,129,-0.381781,0.01467,0.073348,0.139571,0
1.981148,-93.652435,349.260284,45,129,-0.381781,0.01467,0.084216,0.1396,0
2.433578,-93.891327,350.314545,45,131,-0.381843,0.014776,0.086542,0.139639,0
3.707452,-94.167168,350.23941,45,134,-0.381787,0.014677,0.087066,0.13959,0
3.342521,-94.032097,350.198639,44,138,-0.38175,0.014658,0.087153,0.139513,0
3.099015,-94.404823,350.331329,45,139,-0.381825,0.014689,0.087153,0.139639,0
3.462693,-94.954651,350.839783,46,137,-0.381843,0.014733,0.087163,0.139639,0
4.306096,-95.791725,351.668121,45,134,-0.381775,0.014727,0.087202,0.139581,0
5.291434,-96.770935,353.178131,44,130,-0.381775,0.01467,0.087202,0.139552,0
6.180615,-96.987617,353.560059,44,131,-0.381868,0.014683,0.087114,0.139552,0
5.730539,-96.701378,354.403198,45,132,-0.381794,0.014695,0.087211,0.139629,0
5.634826,-96.242493,354.783386,45,133,-0.381787,0.014683,0.087192,0.139629,0
4.45752,-96.377441,356.078064,45,135,-0.381787,0.014695,0.087172,0.139619,0
5.446052,-94.436493,356.181793,131,133,-0.381787,0.014702,0.087298,0.139367,0
2.048003,-88.784256,353.190216,164,62,-0.381812,0.014664,0.087075,0.142954,0
4.044176,-85.54081,345.052032,188,15,-0.371504,-0.001016,0.092233,0.210379,0
2.995023,-80.772751,340.157867,220,0,-0.334934,-0.072685,0.10566,0.371065,0
1.759425,-77.141945,335.961456,235,-2,-0.268612,-0.182365,0.114666,0.514901,0
-1.310158,-78.990738,332.967072,232,-5,-0.2095,-0.267253,0.125058,0.660017,0
-0.960488,-79.770638,333.595551,233,-4,-0.160864,-0.323735,0.135693,0.802118,2
0.941871,-81.763824,333.721558,230,-4,-0.106526,-0.349517,0.138747,0.907972,2
1.106929,-84.697258,336.4328,225,-4,-0.071184,-0.358448,0.139338,0.927749,2
1.759318,-85.612701,337.637451,223,-5,-0.028699,-0.360935,0.139581,0.842156,2
-1.346977,-88.438896,341.67926,225,-6,0.00865,-0.366282,0.139561,0.698514,2
-2.097722,-90.67733,346.175415,224,-5,0.021576,-0.372632,0.139581,0.579728,2
-0.904862,-92.214767,350.432892,225,-6,0.023857,-0.375082,0.13961,0.435911,2
-0.75173,-93.275932,352.592682,223,-6,0.024374,-0.375617,0.1396,0.292084,2
-0.556794,-92.169724,353.472961,223,-6,0.024455,-0.375755,0.139561,0.155169,2
-2.803382,-93.446251,353.893616,223,-6,0.024598,-0.375823,0.139629,0.089092,2
-3.115995,-94.524139,356.621613,219,-6,0.024523,-0.375711,0.13959,0.096246,2
-1.91993,-94.646133,356.91449,216,-6,0.024467,-0.375792,0.139571,0.106183,2
-2.184089,-95.049828,357.162292,212,-6,0.024561,-0.375823,0.1396,0.108306,2
-2.334296,-95.757263,359.86261,218,-6,0.024523,-0.375804,0.139619,0.108752,2
-1.982349,-95.933769,359.831879,220,-6,0.024486,-0.375717,0.139513,0.108869,2
-1.560591,-96.103317,154.644897,219,-7,0.024492,-0.375817,0.13961,0.108878,2
-3.362466,-96.951149,0.929146,218,-7,0.024592,-0.375798,0.139619,0.108878,2
-4.473364,-97.182808,3.265168,212,-7,0.024517,-0.375792,0.139532,0.108878,2
-4.35412,-97.291641,29.008387,226,-8,0.024511,-0.375798,0.13961,0.108888,2
-2.965216,-97.625259,13.453531,230,-7,0.024561,-0.375867,0.139619,0.108888,2
-2.962107,-97.69088,9.025333,234,-7,0.024505,-0.375804,0.139542,0.108888,2
-2.967566,-97.564476,7.70183,249,-3,0.024505,-0.375804,0.139532,0.108898,2
-2.712615,-96.751663,7.511265,264,19,0.024561,-0.375836,0.139639,0.108898,2
2.118228,-93.414474,92.869537,134,53,0.024492,-0.375736,0.1396,0.108907,2
-1.035578,-89.584305,275.796173,62,83,0.023265,-0.374826,0.158591,0.110371,2
2.648499,-84.59816,323.867004,52,103,0.002487,-0.357463,0.259355,0.118214,2
1.337742,-81.351967,334.570679,44,118,-0.070161,-0.316836,0.403192,0.127307,2
3.545491,-79.124664,334.41333,42,127,-0.158907,-0.262236,0.547455,0.137419,0
2.69096,-79.019798,332.914764,42,127,-0.249828,-0.198805,0.691262,0.139115,0
3.485539,-82.465729,333.109436,42,128,-0.332136,-0.151665,0.857474,0.139571,0
0.030522,-85.346313,335.601227,42,129,-0.360112,-0.107018,0.938383,0.139532,0
-1.280878,-87.522896,340.485687,43,130,-0.362231,-0.053715,0.932945,0.139561,0
1.844719,-89.569466,343.88797,43,129,-0.362387,-0.011586,0.842796,0.139619,0
2.747903,-91.472366,345.734467,45,130,-0.375337,0.008008,0.697806,0.139619,0
3.585276,-93.504539,347.643738,47,130,-0.380391,0.013287,0.555715,0.139571,0
1.39634,-94.51915,351.20639,48,127,-0.381488,0.014384,0.411442,0.139513,0
1.549518,-94.890144,353.138885,47,127,-0.381725,0.014646,0.265909,0.139619,0
1.350151,-94.713531,354.692474,45,126,-0.381781,0.014646,0.148277,0.139619,0
3.960702,-94.88459,355.012817,44,129,-0.381862,0.014758,0.071913,0.139648,0
4.581448,-95.364769,354.579224,45,130,-0.381787,0.014677,0.075491,0.13961,0
2.458942,-95.255379,354.8461,45,130,-0.381787,0.014664,0.084681,0.139629,0
1.611655,-94.677055,355.473938,45,131,-0.381831,0.014776,0.08663,0.13961,0
2.136787,-94.883224,355.214386,46,136,-0.3818,0.014689,0.087027,0.139629,0
1.744413,-95.02874,355.344421,44,146,-0.381756,0.014658,0.087172,0.139455,0
1.626883,-95.195724,355.816895,45,146,-0.381806,0.01467,0.087182,0.139619,0
2.22036,-95.51313,356.663422,47,148,-0.38185,0.014758,0.087134,0.139639,0
2.586027,-95.581177,356.9328,47,154,-0.381775,0.014689,0.087143,0.139581,0
3.674049,-95.888466,356.938995,46,160,-0.381762,0.014664,0.087221,0.139552,0
4.174461,-95.843643,357.126587,46,164,-0.381862,0.014683,0.087163,0.139552,0
5.14859,-95.780006,357.169128,47,165,-0.381806,0.014702,0.087182,0.13959,0
5.622338,-95.911613,357.482239,47,159,-0.381775,0.014664,0.087211,0.139619,0
6.017738,-95.277603,358.071808,59,156,-0.381825,0.014733,0.087231,0.139619,0
2.2713,-92.559509,357.698792,157,112,-0.381781,0.014627,0.087221,0.139426,0
6.429714,-87.072571,350.363678,182,30,-0.381787,0.014689,0.087192,0.141112,0
3.622301,-82.469406,342.902954,219,4,-0.372651,0.001253,0.091186,0.200597,0
2.1892,-78.002708,337.10437,230,-6,-0.338474,-0.068317,0.104962,0.334565,0
0.584423,-76.500153,334.33786,235,-6,-0.282727,-0.162696,0.113386,0.478828,0
-2.959952,-78.013184,333.938171,231,-7,-0.219328,-0.252427,0.122955,0.622645,0
-3.086494,-79.548927,334.751617,227,-6,-0.165812,-0.320438,0.134229,0.766482,2
-1.315112,-82.977806,337.069641,224,-6,-0.11115,-0.349075,0.138417,0.884521,2
-2.208045,-83.769402,339.474884,223,-6,-0.075783,-0.357582,0.13929,0.91819,2
-0.830344,-84.641434,339.326996,219,-6,-0.034669,-0.360854,0.139532,0.866577,2
-2.822886,-86.714684,340.947296,223,-7,0.005771,-0.364406,0.139571,0.736283,2
-3.367517,-88.949196,344.47467,225,-8,0.021096,-0.37242,0.139571,0.592457,2
-2.556162,-90.990219,348.479767,224,-7,0.023794,-0.375063,0.139629,0.448639,2
-1.687725,-91.851799,351.898254,225,-16,0.024318,-0.375593,0.139503,0.304376,2
-2.614647,-93.533882,353.938202,226,-15,0.024492,-0.375792,0.139522,0.184437,2
-2.54,-94.127129,356.593109,227,-15,0.024474,-0.375786,0.139639,0.093687,2
-2.785028,-94.766251,0.156089,226,-15,0.024586,-0.375786,0.1396,0.083721,2
-1.88784,-95.213905,204.919876,225,-15,0.024461,-0.375792,0.139522,0.103585,2
-1.773267,-95.294762,0.310496,222,-15,0.02453,-0.375829,0.1396,0.107696,2
-2.182156,-95.829613,33.564423,221,-15,0.024586,-0.375823,0.139629,0.108539,2
-2.460635,-96.356537,12.207953,222,-15,0.024499,-0.375692,0.139532,0.10884,2
-2.287473,-96.761696,5.807667,222,-15,0.02448,-0.375811,0.139571,0.108869,2
-3.002622,-97.310928,4.763394,223,-15,0.024548,-0.375854,0.13961,0.108869,2
-3.898924,-97.84465,5.966172,223,-15,0.024573,-0.375854,0.13961,0.108898,2
-4.427432,-98.026344,7.585746,224,-14,0.024505,-0.375773,0.139532,0.108907,2
-4.516291,-98.077782,8.716465,231,-15,0.024505,-0.37578,0.139639,0.108898,2
-4.356134,-98.094986,9.630145,228,-15,0.024567,-0.375836,0.13959,0.108849,2
-3.423585,-98.121483,10.506338,231,-15,0.024517,-0.375798,0.139513,0.108878,2
-2.215202,-97.333138,10.892822,247,-12,0.02453,-0.375836,0.139619,0.108888,2
-1.711347,-95.962456,10.281338,229,25,0.02453,-0.375823,0.139658,0.108888,2
0.813202,-91.179291,144.063766,97,56,0.024511,-0.375817,0.141849,0.108917,2
-0.133595,-87.457161,293.310699,60,77,0.014646,-0.368214,0.204688,0.114656,2
0.773604,-84.825317,329.826691,52,107,-0.032164,-0.334629,0.340217,0.123808,2
1.196756,-81.508644,337.749298,43,125,-0.1242,-0.281749,0.484044,0.134675,2
4.499753,-80.723976,336.885895,42,135,-0.215277,-0.225292,0.628297,0.138553,0
4.371893,-81.223244,333.883789,42,134,-0.299137,-0.174357,0.772124,0.139338,0
2.550167,-83.702621,333.712433,41,137,-0.350458,-0.128681,0.891007,0.139522,0
1.662669,-86.416466,336.096313,41,139,-0.36225,-0.078045,0.925645,0.139561,0
0.707842,-87.831467,340.043823,42,142,-0.361383,-0.026742,0.873964,0.139561,0
2.069461,-89.290894,343.022278,42,145,-0.370476,0.00273,0.745386,0.139658,0
2.532217,-90.541725,345.318817,45,145,-0.378584,0.012097,0.60156,0.1396,0
1.450933,-92.126305,348.169647,47,147,-0.381114,0.013966,0.481067,0.139571,0
0.721662,-93.276253,351.33551,47,147,-0.381632,0.01454,0.33853,0.139435,0
0.448478,-93.225075,353.503754,46,150,-0.381725,0.014621,0.218038,0.13959,0
1.166701,-92.797173,354.349243,46,151,-0.381818,0.014764,0.100115,0.139648,0
2.691229,-93.149223,353.877838,46,152,-0.381837,0.014695,0.066223,0.139639,0
2.26352,-93.722977,353.169128,45,155,-0.381731,0.014633,0.080793,0.139435,0
0.365919,-93.63295,354.607544,45,155,-0.381806,0.01472,0.085864,0.139678,0
0.850663,-94.270309,355.933777,46,156,-0.381818,0.01472,0.086794,0.13959,0
2.66257,-94.796669,355.720764,46,159,-0.381831,0.01472,0.087114,0.13959,0
3.296252,-95.316704,356.428009,46,160,-0.381756,0.014658,0.087172,0.13959,0
4.327791,-96.024872,357.197205,46,160,-0.381794,0.014664,0.087172,0.13959,0
5.382327,-96.659271,358.0448,46,157,-0.38185,0.014764,0.087172,0.13959,0
5.663308,-97.113907,47.090405,46,158,-0.381787,0.014689,0.087163,0.13959,0
4.528896,-97.133331,46.257057,46,162,-0.381775,0.014677,0.087182,0.13959,0
4.461915,-97.025444,291.540924,48,161,-0.381787,0.014689,0.087211,0.139581,0
4.409006,-96.002052,156.744217,71,163,-0.3818,0.01472,0.087221,0.139581,0
0.673933,-92.925781,0.062944,164,105,-0.381775,0.014639,0.087046,0.1396,0
4.255556,-88.055275,353.384003,194,21,-0.381245,0.014265,0.087589,0.155334,0
1.654782,-83.554832,347.402771,213,2,-0.366344,-0.016883,0.095771,0.250475,0
-0.114828,-81.040527,341.984558,223,-1,-0.324439,-0.104133,0.109615,0.394137,0
-0.533034,-78.917015,339.350616,226,-2,-0.264174,-0.198388,0.116702,0.5384,0
-2.910866,-79.724579,336.631927,224,-4,-0.20323,-0.286722,0.125863,0.682217,2
-2.813137,-81.765488,336.36734,224,-4,-0.148543,-0.330871,0.136391,0.825899,2
-0.839179,-83.303795,337.398071,227,-2,-0.097888,-0.351755,0.13895,0.916988,2
-0.4937,-84.920441,340.122345,228,-3,-0.063344,-0.360361,0.139396,0.921922,2
1.339722,-87.530373,340.135925,224,-3,-0.016652,-0.361153,0.139561,0.841933,2
-1.202326,-89.0345,343.001801,230,-3,0.015238,-0.366668,0.139581,0.700288,2
-1.520054,-90.353912,346.294983,229,-3,0.02261,-0.373692,0.13961,0.579776,2
-1.249114,-91.502426,349.155334,230,-4,0.024075,-0.375337,0.1396,0.435949,2
-0.315556,-92.228195,350.675354,228,-4,0.024393,-0.375674,0.139493,0.308109,2
-0.157295,-93.674805,353.073517,228,-5,0.02448,-0.375817,0.139532,0.174054,2
-0.690336,-94.57151,356.061646,229,-3,0.02448,-0.375804,0.139648,0.09392,2
-1.196186,-95.277046,359.634857,225,-4,0.024567,-0.375798,0.139581,0.092233,2
-0.830616,-95.551964,0.476078,223,-4,0.024486,-0.375792,0.139561,0.10533,2
-0.951499,-95.562645,312.413605,218,-4,0.024486,-0.375823,0.13959,0.10788,2
-1.191354,-96.056122,323.888306,219,-4,0.024567,-0.375817,0.13961,0.108675,2
-1.624952,-96.341103,157.004166,222,-4,0.024548,-0.375767,0.139542,0.108869,2
-2.013771,-96.395279,44.531567,223,-4,0.024492,-0.375823,0.13959,0.108869,2
-2.960905,-96.748932,15.247073,224,-4,0.024499,-0.37591,0.13961,0.108869,2
-3.696911,-97.174942,8.383161,221,-4,0.024536,-0.375786,0.139571,0.108907,2
-4.662041,-97.119339,7.747172,219,-4,0.024536,-0.375786,0.1396,0.108907,2
-4.788257,-97.249748,7.929126,225,-4,0.024561,-0.375848,0.139619,0.108878,2
-4.021949,-97.577278,9.121875,227,-4,0.024511,-0.375861,0.139581,0.108849,2
-3.029127,-97.549355,10.500387,236,-4,0.024511,-0.375798,0.139522,0.108859,2
-2.291957,-96.605888,9.58716,251,7,0.024567,-0.375823,0.139648,0.108917,2
0.932972,-94.580666,7.479914,216,39,0.024511,-0.375798,0.139561,0.109014,2
-0.202202,-90.251602,257.096649,92,67,0.024486,-0.375798,0.144593,0.108898,2
1.394513,-86.258896,329.789337,59,95,0.01467,-0.366188,0.217126,0.116139,2
2.637241,-83.38855,338.288208,52,116,-0.036452,-0.324121,0.356765,0.125533,2
3.422517,-82.413696,337.80542,45,130,-0.128706,-0.270388,0.523907,0.135984,2
5.843452,-81.516861,336.2117,41,131,-0.234684,-0.215227,0.66817,0.138805,0
5.800165,-82.089767,333.933014,42,133,-0.314661,-0.165326,0.811997,0.139377,0
3.207581,-84.532372,333.04129,42,137,-0.355693,-0.119913,0.91786,0.139513,0
1.445823,-86.081757,335.087677,43,148,-0.362486,-0.06851,0.937627,0.139532,0
0.690687,-87.983154,339.011414,44,152,-0.361284,-0.019862,0.872296,0.139629,0
1.886523,-88.978355,341.987793,43,155,-0.372801,0.005272,0.735605,0.13961,0
1.720691,-90.648811,344.406891,44,157,-0.379294,0.012608,0.591332,0.139571,0
0.694131,-91.830193,347.469696,46,157,-0.381245,0.014103,0.47084,0.139571,0
0.437436,-92.514259,350.156311,46,158,-0.381675,0.014558,0.327013,0.139571,0
0.790974,-92.799873,352.029022,45,158,-0.381756,0.014658,0.18275,0.139542,0
1.395949,-92.835022,352.788177,45,158,-0.381843,0.014758,0.090449,0.139668,0
1.78495,-93.350441,352.865631,45,157,-0.381794,0.014689,0.052757,0.139639,0
1.219924,-93.659195,353.400116,46,159,-0.381744,0.014633,0.077672,0.139435,0
1.044451,-93.64167,354.164673,45,158,-0.381794,0.014702,0.085137,0.139619,0
2.326225,-93.97525,354.203918,46,158,-0.381843,0.014751,0.08662,0.139648,0
2.279052,-94.115913,354.131165,45,157,-0.381806,0.014677,0.087075,0.1396,0
1.477837,-94.118851,354.762268,46,161,-0.381756,0.014664,0.087153,0.139542,0
1.06655,-94.324966,355.362732,45,164,-0.3818,0.014689,0.087172,0.139542,0
0.625967,-93.880028,356.090729,44,168,-0.381856,0.014714,0.087221,0.139668,0
0.876008,-94.214851,356.165741,47,170,-0.381762,0.014677,0.087143,0.139561,0
1.590231,-93.955574,356.500549,47,170,-0.381812,0.014683,0.087143,0.139561,0
1.564138,-93.822441,356.120941,50,170,-0.381856,0.014733,0.087192,0.139629,0
1.925534,-93.527794,355.706696,51,169,-0.381756,0.014677,0.08724,0.139619,0
1.659231,-92.538582,355.016754,62,164,-0.381787,0.014664,0.087192,0.13959,0
-0.834828,-90.696144,354.16571,101,158,-0.381831,0.014683,0.087163,0.139571,0
-0.556175,-88.501793,350.922821,135,145,-0.381831,0.014739,0.087114,0.139619,0
-1.434956,-88.321121,348.910187,165,144,-0.381781,0.014689,0.087202,0.13959,0
0.242399,-88.574387,347.592438,155,141,-0.381781,0.014683,0.087202,0.1396,0
0.486891,-88.61441,347.299286,150,143,-0.381781,0.014677,0.087202,0.1396,0
1.273792,-88.403152,346.345978,150,139,-0.3818,0.014683,0.087202,0.139571,0
1.68685,-88.100899,345.762939,144,135,-0.381818,0.014695,0.087182,0.13959,0
2.283761,-87.875893,344.735657,120,136,-0.381825,0.014714,0.087143,0.1396,0
2.772251,-88.05381,344.327332,95,134,-0.381794,0.014714,0.087143,0.139542,0
3.68341,-88.814171,345.002441,105,120,-0.381781,0.014708,0.087202,0.139639,0
4.878311,-88.344254,345.341003,159,79,-0.381818,0.014683,0.087202,0.139639,0
7.149445,-85.895439,342.780945,206,39,-0.381762,0.01467,0.087221,0.139571,0
6.403795,-82.098053,337.465973,230,22,-0.356871,-0.010782,0.087143,0.169905,0
4.103658,-79.974236,333.312164,240,11,-0.320793,-0.046741,0.087182,0.224,0
3.73728,-79.193146,331.368042,247,2,-0.29025,-0.081965,0.087143,0.27794,0
-0.772781,-83.614624,334.639832,234,-2,-0.194324,-0.099845,0.08725,0.448329,0
0.088077,-84.179253,337.80191,223,-4,-0.16547,-0.073271,0.098757,0.475513,2
0.116356,-85.517052,339.068939,223,-3,-0.117526,-0.026742,0.103391,0.439023,2
-2.138575,-87.548782,341.770508,214,-4,-0.070155,-0.005079,0.10438,0.391084,2
-2.642192,-90.046944,345.581177,209,-4,-0.027901,-0.001128,0.104622,0.343513,2
-5.344853,-92.66687,351.25296,204,-3,-0.005846,-0.000324,0.1047,0.295642,2
-2.662729,-92.732079,355.727905,207,0,-0.001228,-6.00E-06,0.104603,0.255468,2
-3.292076,-92.397453,355.499237,211,11,-0.000274,-2.50E-05,0.104642,0.206812,2
-4.28809,-92.904762,356.150421,213,23,-6.90E-05,-1.20E-05,0.1047,0.159445,2
-3.888983,-92.373291,357.207214,216,30,-2.50E-05,0,0.10469,0.122683,2
-3.628442,-92.301018,356.302216,189,32,-2.50E-05,0,0.104661,0.108287,2
-2.639005,-92.631393,356.673492,150,31,-6.00E-06,-6.90E-05,0.104632,0.105456,2
-0.706535,-92.195984,355.986969,127,26,0,3.70E-05,0.104681,0.104913,2
1.725066,-91.61557,354.250793,110,22,6.00E-06,0,0.104671,0.104739,2
4.008565,-91.3983,352.56778,94,21,6.00E-06,3.10E-05,0.104671,0.104671,2
4.637733,-91.269562,352.044037,89,23,6.00E-06,0,0.104671,0.104671,2
4.49849,-91.045235,353.880676,95,27,6.00E-06,0,0.104671,0.104671,2
4.216822,-90.691803,359.836578,95,35,6.00E-06,0,0.104661,0.104671,2
4.496789,-90.002686,358.229675,92,64,6.00E-06,-1.20E-05,0.104661,0.104671,2
4.722033,-90.384445,357.632324,86,95,6.00E-06,-0.000118,0.104671,0.104477,2
3.933277,-90.984863,359.532745,73,116,6.00E-06,1.20E-05,0.104933,0.104681,2
2.469383,-90.291695,175.054459,53,125,-3.70E-05,-1.20E-05,0.104681,0.104681,2
8.894945,-88.331543,358.386932,53,92,-4.40E-05,0,0.104613,0.104671,2
7.427271,-88.022537,330.019867,53,58,6.00E-06,0,0.104622,0.104652,2
6.938317,-88.556763,185.764114,52,45,-1.90E-05,1.90E-05,0.104661,0.104719,2
8.056434,-88.777336,1.935354,53,40,0,-6.00E-06,0.1047,0.104661,2
10.098441,-88.543144,7.363145,53,40,1.90E-05,-2.50E-05,0.1047,0.104593,2
13.075498,-87.361649,10.020525,58,49,-6.00E-06,-6.00E-06,0.104671,0.104632,2
13.569162,-86.696541,9.650917,70,66,-1.90E-05,1.20E-05,0.104652,0.104739,2
16.298281,-86.65934,54.031857,86,106,-1.20E-05,-1.20E-05,0.10469,0.104729,2
11.846183,-88.919807,23.54084,102,130,4.40E-05,-1.20E-05,0.104681,0.104555,2
6.193982,-91.008362,25.626902,101,146,1.20E-05,-1.20E-05,0.104661,0.10471,2
4.81542,-91.654449,31.555691,102,161,-3.10E-05,6.00E-06,0.104652,0.104719,2
4.049684,-91.164307,34.820366,97,172,-1.90E-05,1.90E-05,0.104642,0.1047,2
2.70168,-91.340828,35.50182,133,170,3.10E-05,1.90E-05,0.10469,0.104545,2
2.438432,-91.567078,36.223808,200,138,2.50E-05,1.20E-05,0.10469,0.104671,2
2.100515,-92.110062,38.225773,241,43,-1.90E-05,-3.70E-05,0.10469,0.104671,2
1.684335,-91.124557,38.149548,227,-6,-1.90E-05,-1.20E-05,0.10469,0.10471,2
-1.24632,-90.179153,35.063847,198,-10,5.60E-05,-6.00E-06,0.104681,0.104661,2
-5.72029,-88.529648,32.678246,176,-9,-1.20E-05,1.90E-05,0.104622,0.1047,2
-9.625919,-88.116364,33.417889,178,-9,-5.60E-05,5.60E-05,0.104613,0.1047,2
-9.391643,-86.832497,33.427547,182,-10,1.20E-05,-3.10E-05,0.104729,0.104652,2
-13.458836,-86.607452,30.867807,188,-10,6.90E-05,-3.10E-05,0.104719,0.104584,2
-14.632613,-85.53109,26.280926,209,-10,-9.30E-05,6.20E-05,0.104496,0.10471,2
-11.541938,-84.675285,192.893921,231,-8,1.20E-05,-6.00E-06,0.10471,0.104719,2
-9.395027,-84.50354,250.029541,243,-4,5.00E-05,-4.40E-05,0.104729,0.104632,2
-4.012545,-85.300674,260.070465,237,23,-0.000131,8.10E-05,0.104409,0.104797,2
3.600957,-84.159653,262.533234,232,67,0,0,0.104671,0.104652,2
5.44705,-86.424553,261.699341,191,121,3.10E-05,-1.20E-05,0.104681,0.104564,2
3.804219,-89.633652,259.843231,158,129,-1.20E-05,2.50E-05,0.104642,0.104729,2
4.16003,-90.525131,256.45755,156,141,3.70E-05,-6.90E-05,0.104739,0.104729,2
1.409432,-91.506111,257.458344,155,144,-1.90E-05,1.90E-05,0.104603,0.104652,2
3.887673,-91.412689,256.491852,187,127,-2.50E-05,1.20E-05,0.104642,0.104613,2
4.113522,-91.353363,256.819489,214,52,-6.00E-06,-1.20E-05,0.1047,0.104681,2
5.449838,-92.814514,256.595642,191,24,2.50E-05,-6.00E-06,0.1047,0.104681,2
0.750181,-94.121948,258.16806,163,-1,-9.30E-05,5.00E-05,0.1047,0.10471,2
-2.053843,-92.502792,268.063538,152,1,6.00E-06,1.20E-05,0.104613,0.10471,2
-4.083642,-92.153915,276.239868,146,2,2.50E-05,-6.00E-06,0.104603,0.104652,2
-10.960414,-91.464806,289.23642,148,18,0,-6.00E-06,0.1047,0.104652,2
-13.769567,-90.555794,287.167847,168,26,-5.00E-05,3.10E-05,0.1047,0.104739,2
-5.530057,-90.346916,276.625977,206,57,-1.90E-05,1.20E-05,0.104622,0.104671,2
-1.171044,-90.388336,263.248627,170,95,3.10E-05,-3.70E-05,0.104739,0.104574,2
3.669503,-90.948601,252.544067,119,108,-0.0001,-3.10E-05,0.104642,0.10469,2
7.222155,-91.898247,242.45842,100,125,1.90E-05,2.50E-05,0.10469,0.10471,2
5.988702,-92.97081,231.554535,94,129,-1.90E-05,-6.00E-06,0.1047,0.10471,2
6.701822,-93.46685,227.49379,102,133,-2.50E-05,-6.00E-06,0.104642,0.104652,2
5.854464,-93.746254,220.806961,114,132,1.90E-05,-6.00E-06,0.104642,0.104603,2
4.045495,-93.883827,227.868759,139,131,6.00E-06,-6.00E-06,0.1047,0.104603,2
2.450804,-93.614632,223.700333,163,122,-6.00E-06,0,0.1047,0.104719,2
2.644368,-92.612915,232.606186,181,114,-6.00E-06,1.90E-05,0.1047,0.104719,2
1.28393,-92.919205,238.987885,190,112,-6.00E-06,-1.20E-05,0.104584,0.104622,2
0.301652,-93.554474,240.334534,195,114,-6.00E-06,0,0.1047,0.104613,2
0.484812,-93.62236,237.52565,201,118,-6.00E-06,6.00E-06,0.1047,0.10471,2
0.48955,-93.712967,236.887878,203,117,1.90E-05,-6.00E-06,0.1047,0.10471,2
0.883565,-93.626228,237.749969,203,118,1.90E-05,0,0.104642,0.1047,2
1.174861,-93.289703,237.877975,198,120,-2.50E-05,-6.00E-06,0.104622,0.104622,2
1.391725,-93.716484,240.309052,192,120,-1.90E-05,0,0.1047,0.104622,2
2.247107,-94.299629,231.115463,182,120,0,0,0.1047,0.104681,2
2.550951,-94.843445,221.542007,181,116,1.20E-05,0,0.104661,0.10471,2
3.091027,-94.693695,217.052933,184,117,1.20E-05,0,0.104661,0.10471,2
2.278789,-94.360382,215.294357,187,116,1.90E-05,0,0.104681,0.104671,2
2.133797,-94.266914,221.229004,189,113,-3.10E-05,6.00E-06,0.104681,0.104632,2
2.046301,-94.324852,224.789566,192,111,-2.50E-05,6.00E-06,0.104681,0.104632,2
1.85771,-94.446899,222.505341,193,107,2.50E-05,0,0.104671,0.1047,2
1.559632,-94.541046,221.44368,194,109,1.90E-05,-6.00E-06,0.104661,0.104719,2
1.486351,-94.562897,221.866547,196,110,-1.90E-05,-6.00E-06,0.104661,0.10469,2
1.52852,-94.640121,217.971634,195,110,-1.90E-05,0,0.104661,0.104642,2
1.674604,-94.749069,218.450623,199,115,1.20E-05,6.00E-06,0.104661,0.104642,2
1.62911,-94.838074,218.095459,197,117,1.20E-05,0,0.104681,0.104642,2
1.596464,-95.140915,216.051285,198,117,6.00E-06,-6.00E-06,0.10469,0.104652,2
1.573609,-95.371552,209.884628,200,118,-1.20E-05,0,0.104681,0.104719,2
1.633473,-95.390625,213.599991,195,116,-6.00E-06,0,0.104671,0.10471,2
1.765096,-95.584724,202.047073,193,115,6.00E-06,0,0.104632,0.104661,2
1.775409,-95.763451,195.784378,188,115,6.00E-06,0,0.104661,0.104622,2
1.87535,-96.000221,191.26622,176,114,6.00E-06,0,0.1047,0.104622,2
1.982699,-96.048874,177.823242,165,115,0,0,0.10469,0.104719,2
2.01896,-96.126396,173.979492,162,113,-1.20E-05,0,0.104652,0.104719,2
2.009233,-96.164543,162.754044,174,100,-1.20E-05,0,0.104632,0.104613,2
2.054868,-95.756813,145.520691,223,49,-6.00E-06,-0.001789,0.103178,0.106901,2
-0.09886,-91.923645,194.795456,233,-5,3.10E-05,0.002474,0.09074,0.169944,2
1.580701,-89.753288,258.203979,220,-17,0,0.010501,0.087929,0.30552,2
0.936015,-86.382385,270.805603,220,-18,-8.70E-05,-0.009211,0.093784,0.449367,2
-2.443992,-84.089912,277.395874,202,-19,1.20E-05,-0.089949,0.107996,0.592961,2
-5.288253,-83.622276,279.821533,213,-17,1.90E-05,-0.184129,0.113929,0.73702,2
-3.219712,-83.389236,279.729584,219,-18,1.90E-05,-0.270649,0.125407,0.880847,2
-3.990644,-86.406555,278.832153,219,-18,-1.20E-05,-0.327655,0.136071,1.005934,2
0.172962,-86.651276,272.659302,220,-18,-7.50E-05,-0.352104,0.138795,1.047252,2
-2.307317,-86.40918,270.975281,221,-18,6.00E-06,-0.358828,0.139396,1.003123,2
-2.678199,-87.03595,273.318909,227,-18,1.90E-05,-0.362181,0.139619,0.877434,2
-1.920567,-87.966042,273.940247,230,-18,2.50E-05,-0.37022,0.13961,0.733598,2
-1.011428,-88.553436,273.863037,229,-18,-5.60E-05,-0.372913,0.139532,0.589781,2
-1.431049,-89.227928,273.632874,228,-18,6.00E-06,-0.373486,0.139571,0.446323,2
-1.929815,-90.271988,277.457642,226,-18,3.10E-05,-0.373592,0.139629,0.303426,2
-2.30136,-90.683067,280.552185,225,-18,-2.50E-05,-0.373642,0.139619,0.185687,2
-2.03555,-91.069603,280.128357,224,-18,-2.50E-05,-0.373642,0.139581,0.09836,2
-4.413642,-91.786819,279.62735,222,-18,6.90E-05,-0.373661,0.13961,0.095994,2
-3.254464,-92.161392,278.011414,223,-18,-1.90E-05,-0.373661,0.139542,0.110992,2
-2.736713,-91.991905,274.686981,220,-18,-1.90E-05,-0.373605,0.139571,0.114171,2
-2.497187,-91.72963,274.499268,218,-19,-1.90E-05,-0.373673,0.139639,0.114753,2
-2.801929,-91.604965,275.391632,217,-18,1.90E-05,-0.373686,0.139629,0.114957,2
-2.852953,-91.333405,275.844025,217,-18,2.50E-05,-0.373605,0.139542,0.114996,2
-3.036345,-91.495018,275.823944,217,-18,2.50E-05,-0.373605,0.139542,0.114996,2
-2.96294,-91.729965,275.82251,217,-18,-6.20E-05,-0.373661,0.139629,0.115005,2
-2.836029,-91.985558,275.952881,217,-19,-5.60E-05,-0.373661,0.139629,0.115005,2
-2.848366,-92.836761,278.20282,225,-19,0,-0.373661,0.139552,0.115015,2
-3.200729,-94.937271,284.785034,231,-19,6.00E-06,-0.373661,0.139542,0.115015,2
-3.895167,-95.954956,187.025513,235,-18,0,-0.373629,0.139658,0.114986,2
-4.303651,-96.365913,116.076172,236,-18,-1.90E-05,-0.373654,0.139571,0.114986,2
-5.071063,-96.25132,86.74015,239,-18,2.50E-05,-0.373661,0.139571,0.115015,2
-3.103208,-95.942451,98.672272,261,-4,2.50E-05,-0.373648,0.139571,0.115015,2
-0.410409,-94.235596,114.655571,209,26,-8.70E-05,-0.373586,0.139571,0.115141,2
-1.488499,-90.199577,208.488647,103,59,0,-0.373692,0.139658,0.115015,2
0.210406,-87.312729,246.839401,52,89,0.012932,-0.37338,0.165707,0.112911,2
0.482236,-82.7547,263.382355,42,113,-0.004026,-0.353257,0.273917,0.119775,2
0.972159,-78.315971,271.023834,43,131,-0.080476,-0.307382,0.417908,0.129324,2
4.551864,-76.928413,273.614532,39,140,-0.172811,-0.25199,0.561754,0.137332,0
5.595376,-78.157051,271.77301,41,146,-0.262647,-0.199098,0.705591,0.139125,0
5.191222,-80.4963,268.960266,41,150,-0.331257,-0.152476,0.848089,0.139522,0
1.687613,-83.348045,263.955231,41,153,-0.359912,-0.106451,0.931306,0.139552,0
0.501339,-85.496536,261.187103,41,155,-0.362125,-0.053871,0.928224,0.139552,0
2.440829,-87.85762,261.588654,42,154,-0.363041,-0.005846,0.838792,0.139668,0
3.824579,-89.974609,257.25589,45,155,-0.375842,0.008395,0.693531,0.1396,0
2.956215,-92.241348,250.355652,44,153,-0.380578,0.013393,0.551439,0.139581,0
1.471252,-93.258293,244.564301,46,149,-0.381519,0.014402,0.407176,0.139484,0
2.787678,-94.202141,237.618393,46,146,-0.381725,0.014614,0.263359,0.139639,0
1.640836,-93.11338,237.382492,46,146,-0.381775,0.014658,0.146173,0.139542,0
4.209871,-93.80162,235.751648,46,144,-0.381862,0.01477,0.069383,0.139658,0
5.106406,-94.458145,223.185684,45,147,-0.381787,0.014689,0.074075,0.13961,0
2.567261,-94.43338,212.863037,46,147,-0.381762,0.014639,0.083663,0.139561,0
2.120073,-94.195709,216.637985,47,149,-0.381812,0.014708,0.086407,0.139619,0
3.293697,-94.257645,216.294739,47,149,-0.381806,0.014702,0.086998,0.139639,0
3.245293,-94.048141,217.268921,46,150,-0.381756,0.014664,0.087153,0.139484,0
3.007757,-93.772141,221.042542,46,150,-0.381794,0.014664,0.087182,0.139619,0
3.077634,-93.753387,225.175308,46,152,-0.381868,0.014751,0.087134,0.139648,0
2.693835,-93.576668,227.03653,46,154,-0.381775,0.014689,0.087143,0.139561,0
2.306452,-93.534592,228.085266,47,152,-0.381762,0.014658,0.087231,0.139522,0
2.545748,-94.036217,227.332703,46,153,-0.381868,0.014708,0.087095,0.139678,0
1.981627,-93.886864,228.27063,46,153,-0.3818,0.014708,0.087192,0.13961,0
3.006117,-94.834091,222.225479,46,154,-0.381769,0.014708,0.087192,0.139503,0
4.680221,-96.02272,207.674301,46,156,-0.381787,0.014708,0.087192,0.139639,0
5.286829,-96.73336,184.749268,46,161,-0.381812,0.014708,0.087182,0.139629,0
5.482686,-96.60775,176.204605,46,161,-0.38185,0.014708,0.087134,0.139581,0
6.400727,-97.232468,170.148468,46,160,-0.381787,0.014677,0.087172,0.139561,0
5.528522,-97.546608,157.509995,46,161,-0.381781,0.014677,0.087211,0.139561,0
5.505927,-97.551643,149.945023,47,164,-0.381781,0.014683,0.087202,0.139561,0
5.466608,-97.431969,142.883987,47,166,-0.3818,0.014702,0.087172,0.13959,0
4.468652,-95.982658,144.590622,63,171,-0.381806,0.014714,0.087211,0.139658,0
1.172132,-92.88308,157.974365,176,112,-0.381781,0.014658,0.087172,0.139619,0
5.276144,-88.936401,200.204926,219,18,-0.381619,0.011716,0.088345,0.164292,0
3.584021,-84.924522,237.304108,238,-7,-0.362985,-0.028269,0.098331,0.270591,0
1.46659,-82.605743,261.194458,239,-10,-0.320289,-0.118859,0.110468,0.41657,0
-0.622531,-80.615547,275.016602,243,-14,-0.258054,-0.211625,0.118107,0.558652,0
-2.713669,-81.359665,274.711029,235,-13,-0.199154,-0.293285,0.129838,0.702401,2
-2.844815,-81.559868,273.083588,232,-12,-0.133137,-0.339047,0.137535,0.845433,2
-3.169313,-86.052956,270.757233,223,-13,-0.088247,-0.354073,0.139096,0.922843,2
-0.125599,-86.184486,267.24939,227,-13,-0.050705,-0.360212,0.139474,0.915311,2
-2.426343,-88.057892,269.454193,226,-14,-0.007952,-0.362031,0.139571,0.81983,2
-2.88242,-90.248337,272.532776,233,-14,0.017861,-0.369304,0.139542,0.680346,2
-2.714351,-93.302635,269.069427,233,-14,0.022685,-0.374003,0.139629,0.537983,2
-0.668892,-94.487915,265.505127,238,-14,0.024093,-0.375443,0.139484,0.410143,2
-0.055231,-95.150398,264.183807,236,-14,0.024418,-0.375699,0.13959,0.273238,2
0.913067,-94.892784,265.747803,237,-14,0.024492,-0.375786,0.139532,0.140502,2
-1.101807,-95.491318,257.176208,237,-14,0.024586,-0.37591,0.139639,0.086077,2
-1.794668,-96.057648,246.025406,233,-14,0.024505,-0.375736,0.139532,0.095015,2
-0.537705,-95.862045,243.049774,232,-14,0.024467,-0.375798,0.139571,0.10596,2
-1.439831,-95.814873,244.656174,230,-14,0.024542,-0.375823,0.13959,0.108074,2
-1.879583,-96.230598,244.34903,231,-14,0.024573,-0.375804,0.13961,0.108704,2
-1.971727,-96.245102,237.248047,234,-14,0.024492,-0.375804,0.139552,0.108859,2
-1.87974,-96.174217,239.046463,231,-14,0.024486,-0.375804,0.139571,0.108878,2
-1.739434,-96.293716,245.472931,229,-14,0.02453,-0.375892,0.1396,0.108878,2
-1.533653,-96.402985,242.332611,229,-15,0.024555,-0.375786,0.1396,0.108898,2
-1.654782,-96.478958,244.621094,231,-14,0.024555,-0.375786,0.139542,0.108907,2
-1.812055,-96.751534,245.48468,232,-14,0.024511,-0.375792,0.13959,0.108907,2
-1.944158,-97.124847,252.803925,226,-14,0.024499,-0.375842,0.13961,0.108869,2
-3.014888,-97.850266,230.015823,223,-14,0.024499,-0.375842,0.139522,0.108859,2
-3.863016,-98.620033,153.618881,206,-14,0.024505,-0.375842,0.13959,0.108859,2
-4.429741,-98.87957,107.804398,200,-14,0.024573,-0.375842,0.139619,0.108898,2
-4.874943,-99.049606,100.226372,208,-14,0.024517,-0.375742,0.139552,0.108927,2
-3.669206,-98.832855,104.308487,227,-15,0.024492,-0.375861,0.139532,0.108927,2
-2.078509,-98.049011,113.460121,249,-1,0.024586,-0.375848,0.139658,0.108878,2
1.558755,-94.743927,130.062485,165,32,0.024461,-0.375792,0.139416,0.108936,2
-0.506391,-91.627029,198.552979,73,72,0.024449,-0.375786,0.154006,0.108898,2
0.986768,-88.045914,242.684341,57,98,0.007285,-0.361477,0.247402,0.116741,2
1.167038,-83.983467,263.081726,50,117,-0.058813,-0.320962,0.390919,0.12785,2
0.480094,-81.444893,269.77356,42,127,-0.151055,-0.268101,0.534736,0.137021,0
4.006032,-80.53112,271.71225,41,128,-0.238897,-0.2051,0.67898,0.139047,0
2.394989,-81.687935,269.7742,41,123,-0.318731,-0.156701,0.824997,0.139522,0
0.966514,-86.134537,263.063202,41,123,-0.356634,-0.109972,0.932935,0.139522,0
-0.147807,-88.46637,256.25943,41,124,-0.362268,-0.059835,0.934128,0.139532,0
0.772955,-90.263077,257.244934,42,120,-0.361159,-0.014053,0.8487,0.139639,0
3.560635,-91.945457,251.236313,45,117,-0.373648,0.007485,0.70625,0.139581,0
3.714579,-93.74614,241.433075,45,115,-0.38008,0.012776,0.585312,0.139571,0
2.973559,-95.122528,228.44664,47,113,-0.381426,0.014259,0.439759,0.139571,0
2.704149,-95.931892,214.584366,47,113,-0.381675,0.014577,0.297668,0.139493,0
2.489453,-96.124634,212.716019,45,115,-0.381769,0.014658,0.179279,0.139639,0
3.663138,-96.107765,207.676529,46,116,-0.381875,0.01477,0.078399,0.139629,0
4.1425,-96.364166,199.095001,46,118,-0.381794,0.014683,0.065883,0.139619,0
2.147059,-96.42231,193.32959,47,120,-0.381744,0.014639,0.081385,0.139435,0
1.954119,-96.088524,193.719727,46,121,-0.381806,0.014708,0.085922,0.13961,0
2.861921,-96.062447,199.842575,46,126,-0.381831,0.014727,0.086901,0.139629,0
2.915771,-95.784744,198.446655,46,127,-0.381762,0.014658,0.087134,0.139542,0
2.912113,-95.494133,205.545319,46,125,-0.381781,0.014664,0.087172,0.1396,0
3.000285,-95.459755,208.433868,46,126,-0.38185,0.014739,0.087163,0.139639,0
2.672391,-95.372803,207.25029,45,128,-0.381806,0.014739,0.087163,0.13961,0
2.340129,-95.09285,206.830978,46,126,-0.381762,0.014658,0.087172,0.139522,0
2.13385,-95.09008,211.068985,46,129,-0.381787,0.014664,0.087211,0.1396,0
1.523771,-96.014473,207.582062,46,133,-0.381837,0.01472,0.087172,0.139639,0
3.249001,-96.911713,193.580261,46,133,-0.381818,0.014727,0.087153,0.13961,0
5.091451,-97.348412,178.616104,45,118,-0.381775,0.014702,0.087182,0.139561,0
7.02413,-97.516884,170.7892,48,107,-0.381775,0.014689,0.087192,0.139561,0
6.288158,-97.180885,164.649506,48,105,-0.3818,0.01467,0.087211,0.139561,0
5.933378,-96.792519,163.06041,46,106,-0.381856,0.014695,0.087163,0.139619,0
5.198158,-95.171471,162.782669,52,119,-0.381794,0.014714,0.087172,0.139648,0
3.271538,-93.455727,176.996979,158,107,-0.381794,0.014633,0.08726,0.139455,0
6.632202,-88.088005,209.080551,188,19,-0.381781,0.014677,0.087231,0.147511,0
2.134466,-82.933899,241.994949,221,-2,-0.366045,-0.011816,0.094404,0.227519,0
-0.680265,-79.499153,261.677734,235,-9,-0.325044,-0.093463,0.10851,0.36929,0
0.422442,-78.615379,273.009338,249,-11,-0.266811,-0.187637,0.115122,0.513146,0
-4.515529,-79.104683,277.296417,250,-14,-0.205804,-0.276956,0.125785,0.656934,0
-5.944966,-80.668823,273.174438,245,-14,-0.151715,-0.33117,0.136449,0.801207,2
-3.080511,-85.041512,268.777191,244,-13,-0.099826,-0.351536,0.138834,0.906867,2
-1.412632,-86.925957,264.312347,248,-13,-0.064191,-0.359688,0.139377,0.926343,2
-0.57641,-87.996475,263.538605,245,-13,-0.019656,-0.361146,0.13959,0.859257,2
-1.821632,-90.700455,268.399536,253,-15,0.014222,-0.3666,0.139552,0.723341,2
-2.267139,-92.749443,262.668823,250,-14,0.022548,-0.373548,0.139619,0.577954,2
-1.533416,-94.17923,259.32962,247,-15,0.023994,-0.375163,0.139522,0.435862,2
-0.757659,-94.794891,257.557556,246,-15,0.02438,-0.375649,0.13959,0.314924,2
-0.980243,-94.130081,258.469269,245,-15,0.024486,-0.375792,0.139532,0.174054,2
-1.926648,-95.456749,251.251282,240,-15,0.024486,-0.375792,0.13961,0.094569,2
-2.191345,-96.491966,236.918045,234,-15,0.02458,-0.375792,0.13959,0.093251,2
-1.465821,-96.58844,223.821518,230,-15,0.02448,-0.375792,0.139542,0.105631,2
-1.834072,-96.937271,219.987503,229,-14,0.024486,-0.375823,0.139619,0.1082,2
-2.221223,-97.518661,210.953903,230,-15,0.024604,-0.375817,0.139581,0.108684,2
-2.11721,-97.685997,191.846893,231,-15,0.024486,-0.375742,0.139532,0.108859,2
-1.776549,-97.555984,190.983765,228,-15,0.024486,-0.375842,0.139571,0.108869,2
-1.564341,-97.797043,191.207947,228,-15,0.024573,-0.375861,0.139658,0.108869,2
-1.667718,-97.944817,179.236389,227,-15,0.024573,-0.375798,0.139542,0.108907,2
-1.883522,-97.76133,182.582947,226,-15,0.024486,-0.375755,0.139542,0.108907,2
-2.140504,-97.839348,182.334045,224,-14,0.024492,-0.375854,0.139658,0.108898,2
-2.329833,-98.297462,169.667847,225,-14,0.02453,-0.375854,0.139552,0.108869,2
-3.749553,-98.740952,136.997406,222,-13,0.024536,-0.375823,0.139542,0.108869,2
-4.637917,-98.818443,115.064461,203,-15,0.024536,-0.375773,0.13959,0.108869,2
-4.816834,-99.3433,108.474998,196,-15,0.024573,-0.37578,0.1396,0.108869,2
-4.515049,-99.337807,107.907654,202,-16,0.024499,-0.375836,0.139561,0.108898,2
-3.811151,-99.085449,113.012894,220,-14,0.024492,-0.37591,0.139571,0.108927,2
-2.33832,-97.902763,123.70652,254,-9,0.024573,-0.375804,0.13959,0.108849,2
0.35032,-96.536369,136.258469,206,23,0.024517,-0.375804,0.139484,0.109033,2
-2.494213,-91.515732,193.678055,85,72,0.02281,-0.374377,0.160841,0.110352,2
0.376074,-85.567192,244.699799,57,106,0.000798,-0.355226,0.265221,0.118631,2
0.420571,-82.115547,261.551361,45,123,-0.07367,-0.312685,0.405344,0.128471,2
0.91649,-79.229568,267.215088,42,131,-0.16671,-0.255892,0.549597,0.137109,0
3.58905,-79.106812,268.789185,42,132,-0.258347,-0.202077,0.693415,0.139018,0
2.658309,-80.671532,266.523926,40,132,-0.330459,-0.154433,0.833771,0.139503,0
1.23925,-84.610779,260.173584,41,138,-0.359844,-0.107498,0.917133,0.139542,0
-1.192386,-86.554153,255.076828,41,137,-0.36205,-0.053659,0.913857,0.139542,0
1.710476,-87.754875,253.384628,41,136,-0.362655,-0.010433,0.825666,0.139639,0
3.204897,-89.904068,250.21936,42,137,-0.375767,0.0086,0.682673,0.139571,0
3.438289,-91.390419,243.682053,45,137,-0.38051,0.013405,0.539632,0.139571,0
1.588598,-93.364838,233.605042,52,132,-0.381413,0.014309,0.420516,0.139571,0
2.230838,-94.468803,221.45401,49,129,-0.381713,0.014627,0.276456,0.139571,0
1.329189,-93.070213,226.65033,47,129,-0.381781,0.014658,0.137419,0.139629,0
3.567662,-93.779732,225.039886,47,123,-0.38185,0.01472,0.062994,0.139658,0
4.671498,-94.840805,214.317413,47,125,-0.381794,0.014677,0.07202,0.139571,0
2.419525,-95.227852,205.017395,48,123,-0.381762,0.014652,0.083149,0.139581,0
2.331456,-95.712975,202.472061,49,119,-0.381825,0.014733,0.08629,0.139639,0
3.108655,-96.266586,195.539429,47,124,-0.381812,0.014695,0.086988,0.139639,0
2.703732,-96.28846,193.380585,48,127,-0.38175,0.014652,0.087172,0.139493,0
3.01833,-96.214584,193.766663,48,127,-0.3818,0.014683,0.087172,0.139619,0
3.003921,-96.401001,191.74968,49,134,-0.381843,0.014733,0.087163,0.139639,0
2.30481,-96.569557,187.444962,47,141,-0.381775,0.014733,0.087163,0.139581,0
2.08936,-96.382896,187.046158,47,143,-0.381762,0.014664,0.087211,0.139552,0
1.867849,-95.842995,192.261887,48,144,-0.381837,0.014664,0.087202,0.139552,0
2.375628,-95.821663,196.181427,46,146,-0.381843,0.014695,0.087143,0.139639,0
3.661716,-96.790466,187.934357,46,145,-0.381775,0.014714,0.087143,0.139639,0
3.998386,-97.178246,175.159454,49,149,-0.381769,0.014714,0.087211,0.1396,0
5.468348,-97.381767,169.422653,47,149,-0.381831,0.014683,0.087202,0.139581,0
5.115059,-97.326515,161.731674,48,154,-0.381831,0.01467,0.087172,0.139542,0
4.915537,-96.274345,158.616409,58,163,-0.381806,0.014733,0.087182,0.139542,0
1.448768,-93.775948,161.368408,168,120,-0.381775,0.014639,0.087172,0.13961,0
4.682934,-89.268471,204.853912,214,27,-0.381812,0.014664,0.087202,0.140666,0
1.66747,-83.976738,234.447617,231,5,-0.373118,0.003135,0.091108,0.196574,0
-1.737221,-78.381073,260.891205,239,-13,-0.300321,-0.145539,0.113968,0.56855,0
-1.652003,-76.722076,263.694305,244,-12,-0.283195,-0.16896,0.114908,0.736148,0
0.842849,-77.49675,268.444946,229,-12,-0.214485,-0.258285,0.124322,0.879955,0
-1.516295,-80.919144,268.959412,241,-12,-0.163968,-0.319721,0.134821,1.016492,2
-1.76847,-83.137016,264.564178,245,-13,-0.114111,-0.348209,0.138563,1.0857,2
0.260292,-85.942902,261.037506,245,-13,-0.077621,-0.357357,0.139377,1.051818,2
0.579347,-86.852066,261.425323,233,-13,-0.034844,-0.360941,0.139561,0.935727,2
-1.997272,-88.166794,262.072662,232,-13,0.005029,-0.365123,0.1396,0.7919,2
-3.145432,-90.191269,261.041168,231,-14,0.021183,-0.371928,0.139619,0.647637,2
-2.96026,-91.119675,259.029449,232,-13,0.023782,-0.374982,0.139532,0.527135,2
-1.581249,-91.507568,258.597137,232,-14,0.024361,-0.375674,0.139552,0.383076,2
-2.405785,-92.766373,259.731262,233,-14,0.024449,-0.375748,0.139581,0.23732,2
-3.433387,-93.45903,256.732056,231,-14,0.024598,-0.375904,0.139629,0.120395,2
-3.715061,-94.05188,245.648163,227,-14,0.024511,-0.375804,0.1396,0.085331,2
-2.776284,-94.151649,236.476974,225,-14,0.024461,-0.37578,0.139513,0.101443,2
-2.04974,-93.747345,237.818069,225,-14,0.02453,-0.375848,0.139619,0.107259,2
-3.917999,-93.842094,238.22139,227,-14,0.024573,-0.375935,0.139619,0.108432,2
-4.003399,-94.014671,236.700821,232,-14,0.024511,-0.375786,0.139552,0.108791,2
-3.336207,-94.155533,236.078949,230,-14,0.024486,-0.375792,0.139552,0.108869,2
-2.524104,-94.578583,236.363571,229,-14,0.024517,-0.375842,0.139648,0.108869,2
-2.160364,-95.039963,233.213684,229,-14,0.024561,-0.375842,0.139571,0.108898,2
-2.628547,-95.805298,226.593979,228,-14,0.024523,-0.375842,0.139542,0.108907,2
-3.563232,-96.689575,210.435272,228,-16,0.024499,-0.375842,0.13961,0.108898,2
-4.527552,-97.397598,184.66925,219,-15,0.024499,-0.375742,0.139619,0.108878,2
-5.176456,-97.724617,156.428452,208,-15,0.024523,-0.375823,0.139561,0.108869,2
-4.941131,-97.811234,146.315018,210,-15,0.02458,-0.375823,0.139581,0.108869,2
-4.57303,-98.023178,152.535294,212,-15,0.024517,-0.375817,0.13959,0.108869,2
-3.876873,-97.808472,143.216095,210,-15,0.024517,-0.375742,0.13959,0.108898,2
-4.23403,-97.299858,155.539398,213,-15,0.024511,-0.375879,0.13959,0.108927,2
-4.437634,-96.937935,151.607422,220,-14,0.024517,-0.375798,0.139532,0.108917,2
-3.765138,-96.481934,148.652847,227,5,0.024536,-0.375854,0.139542,0.108878,2
-1.657171,-93.575493,165.192673,118,49,0.023196,-0.374577,0.162498,0.110362,2
-2.61923,-88.227135,234.902649,59,98,0.001577,-0.357139,0.266558,0.118321,2
0.850832,-83.532478,257.179779,44,135,-0.069993,-0.313608,0.410783,0.128296,2
0.555166,-80.405907,266.556641,43,152,-0.16145,-0.258958,0.554609,0.137031,0
3.215622,-81.250839,268.266876,41,145,-0.251149,-0.205455,0.698446,0.139086,0
3.591403,-82.784813,262.827332,41,149,-0.323504,-0.158346,0.842156,0.139426,0
0.192156,-85.004013,255.379089,40,151,-0.358404,-0.112235,0.932877,0.139542,0
0.053306,-87.082687,248.798553,40,154,-0.362318,-0.060558,0.937327,0.139542,0
1.023447,-89.335274,247.742828,41,151,-0.361533,-0.008538,0.855399,0.139639,0
2.299046,-91.182831,241.536545,41,152,-0.374384,0.008981,0.689857,0.13961,0
1.84514,-92.453972,232.262863,42,151,-0.380254,0.013131,0.569345,0.139581,0
0.809189,-93.469627,222.566589,43,151,-0.381469,0.014353,0.425101,0.139561,0
0.981972,-94.103035,215.004044,44,147,-0.381731,0.014633,0.281265,0.13959,0
0.748359,-94.281883,212.64859,43,142,-0.38175,0.014633,0.162828,0.139581,0
2.551764,-94.610992,207.951019,44,142,-0.381812,0.014733,0.069945,0.139619,0
3.206591,-95.29258,198.163605,46,140,-0.381812,0.014695,0.063499,0.139648,0
1.655139,-95.502434,191.035309,44,144,-0.38175,0.014639,0.082364,0.139542,0
0.56262,-95.210182,191.095566,43,144,-0.381812,0.014714,0.085854,0.1396,0
1.426163,-95.600655,192.252609,44,151,-0.38185,0.014739,0.086882,0.1396,0
1.523244,-95.570663,188.2659,45,151,-0.381769,0.014664,0.087143,0.1396,0
1.194522,-95.564972,190.01442,44,156,-0.381756,0.014652,0.087172,0.139532,0
0.896875,-95.992371,187.128845,44,155,-0.381831,0.01472,0.087163,0.139561,0
0.801634,-96.192429,182.265442,44,157,-0.381837,0.014739,0.087163,0.139639,0
1.654863,-95.938164,182.356003,44,157,-0.381762,0.014664,0.087182,0.1396,0
3.012601,-96.107872,181.801239,44,158,-0.381769,0.014664,0.087211,0.139581,0
3.684502,-96.720253,177.816574,46,154,-0.381825,0.014702,0.087182,0.139571,0
5.041044,-97.622139,169.08107,46,150,-0.381837,0.014727,0.087153,0.139571,0
5.863194,-97.619789,163.26326,44,141,-0.381794,0.014727,0.087153,0.139571,0
6.512224,-97.978561,159.393951,45,138,-0.381794,0.014683,0.087202,0.139658,0
6.337641,-97.939606,155.380737,46,141,-0.381787,0.014677,0.087211,0.13961,0
5.828677,-97.492935,150.101181,46,143,-0.381787,0.014683,0.087163,0.139561,0
4.485469,-96.137199,146.675156,45,155,-0.381856,0.01472,0.087114,0.139561,0
3.172097,-94.528885,155.03598,160,133,-0.381775,0.01467,0.087337,0.139513,0
4.671081,-89.80761,181.051239,208,43,-0.381787,0.014689,0.087143,0.139639,0
2.922077,-85.192162,210.316849,233,2,-0.38137,0.013349,0.088016,0.158621,0
1.61106,-79.339668,240.485077,238,-3,-0.361327,-0.020323,0.096499,0.259094,0
-0.552132,-77.55484,258.251007,243,-6,-0.317484,-0.105741,0.109993,0.402921,0
-2.740865,-77.655632,265.722656,245,-4,-0.25687,-0.198531,0.116139,0.546738,0
-3.615591,-78.680321,267.588318,242,-4,-0.197366,-0.285875,0.127414,0.690574,2
-4.537779,-80.70945,265.888367,239,-3,-0.150911,-0.334785,0.13706,0.832006,2
-3.718416,-83.928802,261.393127,237,-5,-0.092741,-0.35282,0.139057,0.914099,2
-0.030491,-84.964478,257.304688,235,-5,-0.058096,-0.360018,0.139435,0.900323,2
-2.749442,-86.741058,257.485138,234,-5,-0.013225,-0.361608,0.139561,0.796573,2
-3.239604,-89.304794,256.311249,238,-6,0.016814,-0.369473,0.139542,0.652126,2
-2.908227,-91.006905,251.847672,237,-5,0.022866,-0.374028,0.139629,0.531847,2
-1.628556,-92.172066,246.289597,237,-5,0.024168,-0.375418,0.139542,0.38804,2
-1.022083,-92.922943,238.580841,236,-5,0.024405,-0.375667,0.139542,0.243747,2
-1.389827,-92.955513,236.691574,237,-5,0.024492,-0.375773,0.139581,0.137157,2
-3.033341,-93.62471,228.985016,237,-5,0.024567,-0.375873,0.1396,0.084351,2
-3.016914,-94.46347,216.180389,234,-6,0.024505,-0.375786,0.13961,0.097739,2
-2.008234,-94.712646,208.462906,233,-5,0.024474,-0.375798,0.13959,0.106571,2
-2.508634,-94.883881,202.334885,232,-6,0.024536,-0.375848,0.13959,0.108365,2
-2.872711,-95.407204,201.442001,233,-6,0.024548,-0.375811,0.139629,0.108723,2
-2.711734,-95.530334,195.775879,235,-5,0.024486,-0.37578,0.139513,0.108878,2
-2.710259,-95.683701,189.590134,234,-5,0.024486,-0.375823,0.1396,0.108878,2
-2.821605,-96.496429,182.936768,234,-5,0.024555,-0.375829,0.13961,0.108878,2
-3.035577,-96.987648,167.979691,235,-5,0.024561,-0.375836,0.13959,0.108878,2
-3.79128,-97.673874,150.430771,232,-6,0.024517,-0.375836,0.139561,0.108907,2
-4.311411,-98.220497,138.658951,218,-6,0.024486,-0.375836,0.139619,0.108907,2
-4.252522,-98.872002,134.397232,205,-6,0.024523,-0.375829,0.139619,0.108878,2
-4.080342,-99.208824,127.576813,214,-4,0.024523,-0.375786,0.139542,0.10884,2
-2.524507,-98.344826,127.355087,239,0,0.024505,-0.37596,0.139542,0.108888,2
-2.124695,-97.298409,131.81456,252,30,0.02453,-0.375817,0.139629,0.108936,2
2.451754,-92.695312,147.3246,112,64,0.024474,-0.375792,0.13961,0.108888,2
-0.047761,-89.975586,180.879318,58,102,0.020691,-0.373137,0.175818,0.111816,2
0.855825,-86.152954,218.580093,47,123,-0.009766,-0.347292,0.293635,0.120444,2
1.792476,-80.887016,246.922134,41,128,-0.095352,-0.298663,0.435726,0.131738,2
2.970713,-79.292686,256.863373,41,127,-0.187363,-0.242237,0.579553,0.137894,0
3.928159,-80.068314,259.266541,41,119,-0.276396,-0.189688,0.722934,0.139212,0
4.204373,-81.863609,256.609161,43,118,-0.340319,-0.14491,0.860014,0.139464,0
2.512053,-84.222221,248.588745,43,119,-0.36038,-0.095963,0.921282,0.13959,0
1.262139,-86.030052,242.800232,42,117,-0.361826,-0.042485,0.898404,0.139513,0
3.802852,-87.907936,239.606491,43,117,-0.365334,-0.00397,0.787741,0.1396,0
5.027135,-89.004967,233.438904,44,118,-0.37644,0.00913,0.668985,0.13961,0
5.769474,-90.518883,224.983978,46,118,-0.380622,0.013486,0.525177,0.139619,0
3.674585,-91.326691,216.469406,46,118,-0.381532,0.01439,0.380914,0.13959,0
3.067451,-92.255295,209.872726,47,118,-0.381694,0.014596,0.262138,0.139532,0
2.753218,-92.782867,205.925842,46,119,-0.381781,0.014677,0.129644,0.139619,0
3.71331,-93.195312,200.735275,46,119,-0.381825,0.014733,0.070624,0.139639,0
4.116408,-93.624992,195.019455,46,120,-0.381818,0.014689,0.074192,0.13959,0
2.617219,-93.36145,191.226151,45,121,-0.38175,0.014658,0.083653,0.13959,0
1.989555,-93.005806,195.981369,44,121,-0.381806,0.014708,0.086407,0.13961,0
2.356293,-93.631996,195.551163,46,121,-0.381843,0.014727,0.087017,0.13961,0
2.56517,-93.843857,192.117935,46,123,-0.381781,0.014714,0.087153,0.139571,0
2.555239,-93.969185,190.389542,46,124,-0.381756,0.014658,0.087172,0.139542,0
2.604678,-94.45697,188.046951,45,126,-0.381818,0.014677,0.087172,0.139619,0
3.039265,-96.039894,178.754013,44,127,-0.381843,0.014708,0.087172,0.139639,0
4.516411,-96.638123,168.302322,45,125,-0.381762,0.014727,0.087182,0.13959,0
5.677711,-96.92672,160.581207,45,130,-0.381762,0.01472,0.087192,0.139581,0
5.876782,-96.900307,157.504135,46,134,-0.381843,0.014683,0.087182,0.139581,0
4.905658,-96.346649,154.043045,46,139,-0.381812,0.014677,0.087153,0.139581,0
4.100947,-95.681694,152.741623,45,141,-0.381787,0.014689,0.087153,0.139581,0
5.725004,-94.426224,157.644424,116,125,-0.381812,0.014689,0.087221,0.139571,0
3.442337,-91.054222,164.72702,192,49,-0.381769,0.014689,0.087153,0.139726,0
6.271256,-87.006348,192.517426,224,9,-0.381781,0.014677,0.08724,0.139561,0
2.781696,-81.68998,221.843079,230,-9,-0.377325,0.008301,0.089082,0.175169,0
-0.821687,-77.151199,245.367432,231,-11,-0.350197,-0.042603,0.101103,0.294139,0
-1.721512,-76.550491,259.516693,238,-12,-0.29804,-0.136241,0.111709,0.437976,0
-2.989666,-77.510208,266.38974,238,-14,-0.234628,-0.228919,0.120192,0.582219,0
-4.407018,-79.407402,266.184143,237,-13,-0.178825,-0.305406,0.132223,0.726017,2
-3.367935,-82.055984,264.117615,230,-13,-0.124369,-0.344008,0.137942,0.861982,2
